android/app/src/main/res/raw/super8_daylight.cube
LUT_3D_SIZE 6
-0.076127 -0.076127 -0.076127
0.225800 -0.076128 -0.076128
0.501747 -0.076132 -0.076132
0.737617 -0.076138 -0.076138
0.898977 -0.076146 -0.076146
0.999969 -0.076153 -0.076153
-0.076130 0.225799 -0.076130
0.225798 0.225798 -0.076131
0.501746 0.244992 -0.076134
0.737617 0.238821 -0.076140
0.898977 0.217326 -0.076148
0.999969 0.191738 -0.076155
-0.076141 0.501745 -0.076141
0.244992 0.501745 -0.076142
0.501744 0.501744 -0.076146
0.737616 0.489999 -0.076151
0.898976 0.447153 -0.076158
0.999969 0.397249 -0.076166
-0.076165 0.737615 -0.076165
0.238815 0.737615 -0.076166
0.489997 0.737615 -0.076169
0.737614 0.737614 -0.076175
0.898975 0.673393 -0.076180
0.999969 0.598748 -0.076182
-0.076193 0.898975 -0.076193
0.217318 0.898975 -0.076193
0.447149 0.898974 -0.076196
0.673392 0.898974 -0.076205
0.898974 0.898974 -0.076214
0.999969 0.799513 -0.076210
-0.076220 0.999969 -0.076220
0.191716 0.999969 -0.076220
0.397241 0.999969 -0.076223
0.598746 0.999969 -0.076227
0.799512 0.999969 -0.076235
0.999969 0.999969 -0.076248
-0.076128 -0.076128 0.225800
0.225800 -0.076129 0.225800
0.501746 -0.076132 0.244993
0.737617 -0.076138 0.238822
0.898977 -0.076146 0.217327
0.999969 -0.076154 0.191739
-0.076131 0.225799 0.225799
0.225798 0.225798 0.225798
0.513674 0.218277 0.218277
0.758067 0.193539 0.193539
0.919860 0.169662 0.169662
0.999969 0.225804 0.225804
-0.076142 0.501745 0.244992
0.187165 0.507895 0.187165
0.503214 0.503214 0.177223
0.749593 0.482678 0.165148
0.913269 0.437467 0.153579
0.999969 0.409517 0.225800
-0.076165 0.737615 0.238815
0.148209 0.742443 0.148209
0.474646 0.741002 0.145087
0.738628 0.738628 0.139827
0.905464 0.671651 0.136274
0.999969 0.604343 0.225802
-0.076193 0.898975 0.217318
0.129705 0.902401 0.129705
0.427957 0.901881 0.128602
0.667802 0.900954 0.126594
0.899656 0.899656 0.123944
0.999969 0.801720 0.225792
-0.076220 0.999969 0.191716
0.225787 0.999969 0.225787
0.409519 0.999969 0.225785
0.604352 0.999969 0.225783
0.801719 0.999969 0.225779
0.999969 0.999969 0.225773
-0.076129 -0.076129 0.501747
0.244993 -0.076130 0.501747
0.501746 -0.076133 0.501746
0.737617 -0.076139 0.490000
0.898977 -0.076147 0.447154
0.999969 -0.076154 0.397250
-0.076132 0.244993 0.501747
0.223279 0.223279 0.515690
0.514014 0.214281 0.514014
0.757375 0.189705 0.491437
0.919095 0.167648 0.442936
0.999969 0.225804 0.409518
-0.076143 0.501744 0.501744
0.183561 0.506265 0.506265
0.501744 0.501744 0.501744
0.747012 0.495743 0.495743
0.916516 0.483317 0.483317
0.999969 0.501740 0.501740
-0.076167 0.737615 0.489997
0.147100 0.741925 0.475457
0.480019 0.741225 0.480019
0.738663 0.738663 0.469064
0.910822 0.683471 0.456435
0.999969 0.651157 0.501738
-0.076194 0.898975 0.447149
0.129322 0.902214 0.428220
0.427315 0.906112 0.427315
0.666631 0.904069 0.417903
0.900744 0.900744 0.404152
0.999969 0.820912 0.501734
-0.076221 0.999969 0.397241
0.225786 0.999969 0.409519
0.501732 0.999969 0.501732
0.651154 0.999969 0.501731
0.820911 0.999969 0.501730
0.999969 0.999969 0.501729
-0.076131 -0.076131 0.737618
0.238824 -0.076132 0.737617
0.490000 -0.076135 0.737617
0.737617 -0.076141 0.737617
0.898977 -0.076149 0.673395
0.999969 -0.076156 0.598749
-0.076134 0.238823 0.737617
0.218620 0.218620 0.754609
0.495123 0.206312 0.758356
0.755692 0.182696 0.755692
0.917554 0.163843 0.682266
0.999969 0.225803 0.604344
-0.076144 0.489999 0.737616
0.179654 0.488165 0.754831
0.499732 0.499732 0.748599
0.746159 0.493689 0.746159
0.915637 0.481187 0.695121
0.999969 0.501740 0.651158
-0.076169 0.737615 0.737615
0.145011 0.740909 0.740909
0.476551 0.740422 0.740422
0.737614 0.737614 0.737614
0.906956 0.734100 0.734100
0.999969 0.737612 0.737612
-0.076196 0.898975 0.673392
0.128566 0.901868 0.668560
0.424064 0.905463 0.669413
0.725561 0.901832 0.725561
0.899665 0.899665 0.721735
0.999969 0.859761 0.737610
-0.076222 0.999969 0.598746
0.225785 0.999969 0.604352
0.501732 0.999969 0.651154
0.737609 0.999969 0.737609
0.859760 0.999969 0.737608
0.999969 0.999969 0.737608
-0.076134 -0.076134 0.898978
0.217331 -0.076135 0.898978
0.447155 -0.076137 0.898977
0.673395 -0.076143 0.898977
0.898977 -0.076153 0.898977
0.999969 -0.076158 0.799514
-0.076136 0.217331 0.898978
0.206041 0.206041 0.926864
0.452698 0.195807 0.926037
0.686772 0.177229 0.922372
0.915429 0.158555 0.915429
0.999969 0.225802 0.801721
-0.076146 0.447154 0.898977
0.174822 0.445649 0.921587
0.495199 0.495199 0.920794
0.699134 0.488091 0.918316
0.914221 0.477965 0.914221
0.999969 0.501740 0.820913
-0.076168 0.673394 0.898976
0.145154 0.675171 0.909535
0.473925 0.690510 0.912286
0.736284 0.736284 0.908811
0.906208 0.732821 0.906208
0.999969 0.737612 0.859762
-0.076202 0.898974 0.898974
0.127439 0.901340 0.901340
0.418961 0.904315 0.904315
0.724238 0.901099 0.901099
0.898973 0.898973 0.898973
0.999969 0.898973 0.898973
-0.076225 0.999969 0.799512
0.225784 0.999969 0.801720
0.501732 0.999969 0.820911
0.737609 0.999969 0.859760
0.898972 0.999969 0.898972
0.999969 0.999969 0.898960
-0.076136 -0.076136 0.999969
0.191745 -0.076137 0.999969
0.397252 -0.076139 0.999969
0.598749 -0.076144 0.999969
0.799514 -0.076152 0.999969
0.999969 -0.076165 0.999969
-0.076138 0.191744 0.999969
0.225804 0.225804 0.999969
0.409513 0.225803 0.999969
0.604343 0.225800 0.999969
0.801721 0.225805 0.999969
0.999969 0.225800 0.999969
-0.076146 0.397251 0.999969
0.225800 0.409512 0.999969
0.501743 0.501743 0.999969
0.651159 0.501742 0.999969
0.820913 0.501741 0.999969
0.999969 0.501739 0.999969
-0.076165 0.598748 0.999969
0.225801 0.604344 0.999969
0.501740 0.651158 0.999969
0.737613 0.737613 0.999969
0.859762 0.737613 0.999969
0.999969 0.737612 0.999969
-0.076190 0.799513 0.999969
0.225801 0.801721 0.999969
0.501736 0.820912 0.999969
0.737611 0.859761 0.999969
0.898973 0.898973 0.999969
0.999969 0.898973 0.999969
-0.076228 0.999969 0.999969
0.225782 0.999969 0.999969
0.501731 0.999969 0.999969
0.737609 0.999969 0.999969
0.898972 0.999969 0.999969
0.999969 0.999969 0.999969
