android/app/src/main/res/raw/super8_night.cube
LUT_3D_SIZE 16
0.071728 0.071728 0.071728
0.092417 0.071728 0.071728
0.104120 0.071726 0.071726
0.191776 0.071725 0.071725
0.310959 0.071723 0.071723
0.419922 0.071722 0.071722
0.513250 0.071723 0.071723
0.595450 0.071720 0.071720
0.668901 0.071717 0.071717
0.735665 0.071713 0.071713
0.796164 0.071712 0.071712
0.850819 0.071708 0.071708
0.899907 0.071706 0.071706
0.943029 0.071702 0.071702
0.978903 0.071698 0.071698
0.999969 0.071698 0.071698
0.071726 0.092417 0.071726
0.092417 0.092417 0.071726
0.104120 0.095614 0.066758
0.191776 0.094355 0.062385
0.310959 0.095373 0.062413
0.419922 0.095803 0.063213
0.513250 0.095877 0.064278
0.595450 0.095981 0.065559
0.668901 0.096491 0.067582
0.735665 0.098414 0.071713
0.796164 0.097790 0.071712
0.850819 0.097101 0.071708
0.899907 0.096316 0.071706
0.943029 0.095374 0.071702
0.978903 0.094179 0.071697
0.999969 0.092396 0.071698
0.071724 0.104121 0.071724
0.095616 0.104121 0.066759
0.104121 0.104121 0.071724
0.191776 0.139994 0.071723
0.310958 0.164091 0.071722
0.419921 0.174419 0.071720
0.513250 0.176866 0.071721
0.595450 0.175961 0.071718
0.668901 0.173506 0.071715
0.735665 0.170344 0.071715
0.796164 0.166802 0.071711
0.850819 0.163023 0.071706
0.899907 0.159124 0.071705
0.943029 0.154942 0.071339
0.978903 0.149665 0.068831
0.999969 0.142801 0.065326
0.071722 0.191778 0.071722
0.094355 0.191778 0.062384
0.139994 0.191777 0.071721
0.191777 0.191777 0.071720
0.311004 0.236349 0.071722
0.419921 0.254927 0.071721
0.513250 0.259545 0.071718
0.595450 0.258259 0.071716
0.668901 0.254246 0.071713
0.735665 0.249003 0.071712
0.796164 0.243083 0.071708
0.850819 0.236744 0.071707
0.899906 0.230175 0.071703
0.943029 0.223349 0.071698
0.978903 0.215999 0.071698
0.999969 0.206800 0.071695
0.071720 0.311003 0.071720
0.095374 0.311003 0.062412
0.164111 0.311003 0.071720
0.236349 0.311003 0.071719
0.311003 0.311003 0.071718
0.419920 0.337125 0.071716
0.513249 0.343680 0.071714
0.595449 0.341986 0.071715
0.668901 0.336514 0.071712
0.735665 0.329311 0.071709
0.796164 0.321151 0.071708
0.850819 0.312408 0.071704
0.899906 0.303342 0.071699
0.943029 0.293904 0.071698
0.978903 0.283801 0.071695
0.999969 0.271168 0.071690
0.071715 0.419919 0.071715
0.095801 0.419919 0.063212
0.174415 0.419919 0.071714
0.254925 0.419919 0.071713
0.337105 0.419919 0.071715
0.419918 0.419918 0.071713
0.513249 0.428347 0.071712
0.595449 0.426278 0.071709
0.668900 0.419352 0.071706
0.735664 0.410201 0.071706
0.796164 0.399914 0.071703
0.850819 0.388817 0.071698
0.899906 0.377289 0.071697
0.943029 0.365393 0.071694
0.978903 0.352511 0.071688
0.999969 0.336558 0.071689
0.071710 0.513249 0.071710
0.095876 0.513249 0.064282
0.176861 0.513249 0.071710
0.259543 0.513249 0.071709
0.343679 0.513248 0.071708
0.428346 0.513248 0.071706
0.513248 0.513248 0.071707
0.595448 0.510782 0.071705
0.668900 0.502423 0.071702
0.735664 0.491418 0.071699
0.796163 0.478928 0.071698
0.850818 0.465518 0.071695
0.899906 0.451615 0.071689
0.943029 0.437174 0.071688
0.978903 0.421666 0.071685
0.999969 0.402412 0.071684
0.071704 0.595448 0.071704
0.095983 0.595448 0.065570
0.175954 0.595448 0.071704
0.258256 0.595448 0.071703
0.341985 0.595448 0.071702
0.426277 0.595448 0.071700
0.510781 0.595448 0.071698
0.595448 0.595448 0.071698
0.668900 0.585678 0.071696
0.735663 0.572781 0.071691
0.796163 0.558181 0.071691
0.850818 0.542464 0.071687
0.899906 0.526166 0.071684
0.943028 0.509253 0.071680
0.978902 0.491080 0.071681
0.999969 0.468515 0.071680
0.071697 0.668900 0.071697
0.096516 0.668900 0.067633
0.173496 0.668900 0.071696
0.254241 0.668900 0.071695
0.336511 0.668900 0.071694
0.419350 0.668900 0.071690
0.502422 0.668900 0.071688
0.585678 0.668899 0.071689
0.668899 0.668899 0.071685
0.735663 0.654186 0.071683
0.796162 0.637422 0.071683
0.850839 0.619421 0.071680
0.899905 0.600767 0.071677
0.943028 0.581394 0.071674
0.978902 0.560563 0.071675
0.999969 0.534735 0.071675
0.071685 0.735663 0.071685
0.098390 0.735663 0.071685
0.170322 0.735663 0.071685
0.248999 0.735663 0.071684
0.329308 0.735663 0.071683
0.410197 0.735663 0.071681
0.491416 0.735663 0.071682
0.572780 0.735662 0.071680
0.654186 0.735662 0.071676
0.735662 0.735662 0.071676
0.796162 0.716784 0.071673
0.850838 0.696576 0.071670
0.899905 0.675498 0.071668
0.943028 0.653658 0.071668
0.978902 0.630181 0.071667
0.999969 0.601071 0.071666
0.071675 0.796162 0.071675
0.097768 0.796162 0.071675
0.166787 0.796162 0.071674
0.243075 0.796162 0.071674
0.321147 0.796162 0.071676
0.399908 0.796162 0.071674
0.478926 0.796162 0.071672
0.558179 0.796161 0.071669
0.637421 0.796161 0.071666
0.716783 0.796161 0.071666
0.796161 0.796161 0.071661
0.850838 0.773679 0.071659
0.899905 0.750277 0.071660
0.943027 0.726026 0.071656
0.978901 0.699930 0.071655
0.999969 0.667510 0.071660
0.071666 0.850838 0.071666
0.097074 0.850838 0.071666
0.163017 0.850838 0.071666
0.236740 0.850838 0.071665
0.312408 0.850838 0.071664
0.388823 0.850838 0.071663
0.465525 0.850838 0.071661
0.542476 0.850838 0.071656
0.619419 0.850838 0.071656
0.696575 0.850837 0.071652
0.773678 0.850837 0.071651
0.850837 0.850837 0.071646
0.899904 0.825050 0.071645
0.943027 0.798314 0.071644
0.978901 0.769588 0.071644
0.999969 0.733965 0.071648
0.071652 0.899904 0.071652
0.096290 0.899904 0.071652
0.159104 0.899904 0.071652
0.230165 0.899904 0.071651
0.303334 0.899904 0.071650
0.377319 0.899904 0.071648
0.451611 0.899904 0.071650
0.526163 0.899904 0.071647
0.600766 0.899904 0.071644
0.675497 0.899904 0.071644
0.750276 0.899904 0.071639
0.825050 0.899904 0.071635
0.899903 0.899903 0.071632
0.943026 0.870686 0.071632
0.978900 0.839327 0.071634
0.999969 0.800451 0.071636
0.071643 0.943026 0.071643
0.095333 0.943026 0.071643
0.154908 0.943026 0.071260
0.223331 0.943027 0.071642
0.293904 0.943027 0.071641
0.365385 0.943026 0.071640
0.437170 0.943026 0.071638
0.509249 0.943026 0.071635
0.581392 0.943026 0.071636
0.653656 0.943026 0.071632
0.726024 0.943026 0.071628
0.798313 0.943026 0.071627
0.870685 0.943026 0.071619
0.943026 0.943026 0.071617
0.978900 0.909042 0.071619
0.999969 0.866946 0.071626
0.071632 0.978900 0.071632
0.094133 0.978900 0.071632
0.149629 0.978900 0.068742
0.215979 0.978900 0.071631
0.283781 0.978900 0.071630
0.352504 0.978900 0.071629
0.421661 0.978900 0.071627
0.491075 0.978900 0.071628
0.560559 0.978900 0.071626
0.630179 0.978900 0.071620
0.699928 0.978900 0.071616
0.769587 0.978900 0.071615
0.839327 0.978905 0.071610
0.909042 0.978905 0.071608
0.978905 0.978905 0.071602
0.999969 0.933557 0.071611
0.071626 0.999969 0.071626
0.092351 0.999969 0.071626
0.142772 0.999969 0.065227
0.206784 0.999969 0.071626
0.271162 0.999969 0.071625
0.336552 0.999969 0.071624
0.402404 0.999969 0.071620
0.468510 0.999969 0.071618
0.534754 0.999969 0.071618
0.601069 0.999969 0.071616
0.667509 0.999969 0.071612
0.733964 0.999969 0.071611
0.800451 0.999969 0.071607
0.866946 0.999969 0.071602
0.933557 0.999969 0.071599
0.999969 0.999969 0.071596
0.071728 0.071728 0.092417
0.092417 0.071728 0.092417
0.104120 0.066757 0.095613
0.191776 0.062385 0.094355
0.310959 0.062413 0.095373
0.419922 0.063213 0.095803
0.513250 0.064278 0.095877
0.595450 0.065559 0.095980
0.668901 0.067581 0.096491
0.735665 0.071713 0.098415
0.796164 0.071712 0.097790
0.850819 0.071708 0.097101
0.899907 0.071706 0.096316
0.943029 0.071702 0.095374
0.978903 0.071698 0.094179
0.999969 0.071698 0.092396
0.071726 0.092417 0.092417
0.092417 0.092417 0.092417
0.104120 0.092416 0.092416
0.191776 0.092420 0.092420
0.310959 0.092419 0.092419
0.419922 0.092417 0.092417
0.513250 0.092415 0.092415
0.595450 0.092413 0.092413
0.668901 0.092411 0.092411
0.735665 0.092408 0.092408
0.796165 0.092404 0.092404
0.850819 0.092405 0.092405
0.899907 0.092406 0.092406
0.943029 0.092402 0.092402
0.978903 0.092398 0.092398
0.999969 0.092396 0.092396
0.066759 0.104121 0.095616
0.092420 0.104121 0.092420
0.104121 0.104121 0.092419
0.191776 0.138234 0.092419
0.310958 0.160866 0.092418
0.419921 0.170652 0.092416
0.513250 0.173034 0.092414
0.595450 0.172253 0.092412
0.668901 0.170025 0.092410
0.735665 0.167166 0.092407
0.796164 0.163979 0.092403
0.850819 0.160581 0.092404
0.899907 0.157105 0.092405
0.943029 0.153012 0.091341
0.978903 0.148506 0.089962
0.999969 0.142801 0.088069
0.062384 0.191778 0.094355
0.092417 0.191778 0.092417
0.138233 0.191777 0.092417
0.191777 0.191777 0.092416
0.311004 0.235175 0.092415
0.419921 0.253180 0.092414
0.513250 0.257603 0.092412
0.595450 0.256302 0.092410
0.668901 0.252353 0.092407
0.735665 0.247243 0.092405
0.796164 0.241486 0.092405
0.850819 0.235347 0.092407
0.899906 0.229008 0.092403
0.943029 0.222445 0.092399
0.978903 0.215454 0.092396
0.999969 0.206800 0.092394
0.062412 0.311003 0.095374
0.092414 0.311003 0.092414
0.160880 0.311003 0.092413
0.235174 0.311003 0.092413
0.311003 0.311003 0.092412
0.419920 0.336447 0.092410
0.513249 0.342698 0.092409
0.595449 0.340877 0.092407
0.668901 0.335369 0.092404
0.735665 0.328222 0.092405
0.796164 0.320135 0.092407
0.850819 0.311483 0.092404
0.899906 0.302570 0.092400
0.943029 0.293319 0.092397
0.978903 0.283419 0.092398
0.999969 0.271168 0.092396
0.063213 0.419919 0.095801
0.092409 0.419919 0.092409
0.170649 0.419919 0.092409
0.253183 0.419919 0.092408
0.336447 0.419919 0.092407
0.419918 0.419918 0.092405
0.513249 0.427943 0.092404
0.595449 0.425648 0.092406
0.668900 0.418629 0.092404
0.735664 0.409494 0.092406
0.796164 0.399227 0.092403
0.850819 0.388195 0.092399
0.899906 0.376770 0.092396
0.943029 0.364911 0.092397
0.978903 0.352251 0.092394
0.999969 0.336559 0.092392
0.064282 0.513249 0.095876
0.092408 0.513249 0.092408
0.173029 0.513249 0.092406
0.257601 0.513249 0.092406
0.342697 0.513248 0.092405
0.427943 0.513248 0.092403
0.513248 0.513248 0.092406
0.595448 0.510499 0.092404
0.668900 0.502017 0.092402
0.735664 0.490954 0.092400
0.796163 0.478482 0.092397
0.850818 0.465080 0.092398
0.899906 0.451234 0.092395
0.943029 0.436868 0.092391
0.978903 0.421469 0.092389
0.999969 0.402412 0.092388
0.065570 0.595448 0.095982
0.092404 0.595448 0.092404
0.172253 0.595448 0.092404
0.256298 0.595448 0.092403
0.340876 0.595448 0.092402
0.425647 0.595448 0.092401
0.510498 0.595448 0.092399
0.595448 0.595448 0.092396
0.668900 0.585496 0.092394
0.735663 0.572513 0.092396
0.796163 0.557857 0.092393
0.850818 0.542167 0.092390
0.899906 0.525892 0.092387
0.943028 0.509025 0.092385
0.978902 0.490940 0.092382
0.999969 0.468515 0.092382
0.067633 0.668900 0.096516
0.092395 0.668900 0.092395
0.170016 0.668900 0.092395
0.252353 0.668900 0.092394
0.335367 0.668900 0.092397
0.418627 0.668900 0.092396
0.502016 0.668899 0.092394
0.585496 0.668899 0.092392
0.668899 0.668899 0.092389
0.735663 0.654084 0.092387
0.796162 0.637232 0.092384
0.850839 0.619236 0.092382
0.899905 0.600562 0.092387
0.943028 0.581217 0.092385
0.978902 0.560453 0.092383
0.999969 0.534735 0.092383
0.071685 0.735663 0.098390
0.092389 0.735663 0.092389
0.167145 0.735663 0.092389
0.247237 0.735663 0.092388
0.328219 0.735663 0.092387
0.409490 0.735663 0.092386
0.490952 0.735663 0.092384
0.572512 0.735662 0.092382
0.654083 0.735662 0.092387
0.735662 0.735662 0.092384
0.796162 0.716684 0.092381
0.850838 0.696413 0.092379
0.899905 0.675327 0.092377
0.943028 0.653506 0.092375
0.978902 0.630115 0.092374
0.999969 0.601071 0.092375
0.071675 0.796162 0.097768
0.092386 0.796162 0.092386
0.163969 0.796162 0.092385
0.241479 0.796162 0.092385
0.320131 0.796162 0.092384
0.399222 0.796162 0.092382
0.478479 0.796162 0.092381
0.557855 0.796162 0.092378
0.637231 0.796161 0.092376
0.716683 0.796161 0.092373
0.796161 0.796161 0.092373
0.850838 0.773611 0.092371
0.899905 0.750182 0.092369
0.943027 0.725927 0.092368
0.978901 0.699884 0.092368
0.999969 0.667510 0.092370
0.071666 0.850838 0.097075
0.092373 0.850838 0.092373
0.160570 0.850838 0.092373
0.235339 0.850838 0.092372
0.311483 0.850838 0.092372
0.388200 0.850838 0.092374
0.465087 0.850838 0.092373
0.542179 0.850838 0.092371
0.619235 0.850838 0.092368
0.696412 0.850837 0.092365
0.773611 0.850837 0.092371
0.850837 0.850837 0.092371
0.899904 0.825002 0.092370
0.943027 0.798251 0.092369
0.978901 0.769539 0.092369
0.999969 0.733965 0.092369
0.071652 0.899904 0.096290
0.092365 0.899904 0.092365
0.157088 0.899904 0.092364
0.228992 0.899904 0.092374
0.302574 0.899904 0.092373
0.376763 0.899904 0.092372
0.451230 0.899904 0.092370
0.525889 0.899904 0.092368
0.600560 0.899904 0.092369
0.675326 0.899904 0.092366
0.750181 0.899904 0.092363
0.825002 0.899904 0.092359
0.899903 0.899903 0.092354
0.943026 0.870654 0.092354
0.978900 0.839318 0.092356
0.999969 0.800451 0.092360
0.071643 0.943026 0.095333
0.092366 0.943027 0.092366
0.152982 0.943026 0.091287
0.222446 0.943026 0.092365
0.293309 0.943026 0.092364
0.364903 0.943027 0.092363
0.436863 0.943026 0.092362
0.509021 0.943026 0.092360
0.581215 0.943026 0.092357
0.653504 0.943026 0.092354
0.725925 0.943026 0.092355
0.798250 0.943026 0.092351
0.870654 0.943026 0.092347
0.943026 0.943026 0.092342
0.978900 0.909025 0.092344
0.999969 0.866946 0.092350
0.071632 0.978900 0.094133
0.092354 0.978900 0.092354
0.148478 0.978900 0.089900
0.215433 0.978900 0.092358
0.283415 0.978900 0.092357
0.352244 0.978900 0.092356
0.421464 0.978900 0.092354
0.490935 0.978900 0.092352
0.560449 0.978900 0.092350
0.630113 0.978900 0.092347
0.699882 0.978900 0.092344
0.769538 0.978900 0.092341
0.839317 0.978905 0.092341
0.909025 0.978905 0.092336
0.978905 0.978905 0.092331
0.999969 0.933557 0.092339
0.071626 0.999969 0.092351
0.092351 0.999969 0.092351
0.142773 0.999969 0.088006
0.206784 0.999969 0.092350
0.271162 0.999969 0.092350
0.336552 0.999969 0.092349
0.402404 0.999969 0.092347
0.468510 0.999969 0.092346
0.534754 0.999969 0.092344
0.601069 0.999969 0.092341
0.667509 0.999969 0.092342
0.733964 0.999969 0.092339
0.800451 0.999969 0.092335
0.866946 0.999969 0.092331
0.933557 0.999969 0.092335
0.999969 0.999969 0.092330
0.071728 0.071728 0.104120
0.095613 0.066757 0.104120
0.104120 0.071725 0.104120
0.191776 0.071725 0.139995
0.310959 0.071723 0.164091
0.419922 0.071721 0.174419
0.513250 0.071722 0.176866
0.595450 0.071720 0.175962
0.668901 0.071717 0.173506
0.735665 0.071713 0.170345
0.796164 0.071712 0.166802
0.850819 0.071708 0.163023
0.899907 0.071706 0.159124
0.943029 0.071337 0.154943
0.978903 0.068832 0.149665
0.999969 0.065327 0.142801
0.066757 0.095613 0.104120
0.092417 0.092417 0.104120
0.104120 0.092416 0.104120
0.191776 0.092420 0.138234
0.310959 0.092419 0.160866
0.419922 0.092417 0.170653
0.513250 0.092415 0.173034
0.595450 0.092413 0.172253
0.668901 0.092410 0.170026
0.735665 0.092407 0.167167
0.796165 0.092404 0.163979
0.850819 0.092404 0.160581
0.899907 0.092406 0.157105
0.943029 0.091342 0.153012
0.978903 0.089963 0.148506
0.999969 0.088070 0.142801
0.071724 0.104121 0.104121
0.092420 0.104121 0.104121
0.104121 0.104121 0.104121
0.197263 0.102982 0.102982
0.322432 0.100927 0.100927
0.436563 0.097221 0.097221
0.530984 0.094106 0.094106
0.612186 0.092010 0.092010
0.684198 0.090709 0.090709
0.749314 0.089926 0.089926
0.808183 0.089459 0.089459
0.861551 0.089188 0.089188
0.909541 0.089024 0.089024
0.951999 0.088941 0.088941
0.987345 0.088889 0.088889
0.999969 0.104114 0.104114
0.071721 0.191778 0.139994
0.092417 0.191778 0.138233
0.099325 0.194387 0.099325
0.192484 0.192484 0.097571
0.320396 0.222889 0.095583
0.432962 0.232774 0.093656
0.527257 0.232551 0.092076
0.609161 0.228611 0.090909
0.681846 0.223265 0.090127
0.747537 0.217485 0.089612
0.806896 0.211534 0.089293
0.860593 0.205601 0.089091
0.908791 0.199699 0.088982
0.951345 0.193808 0.088909
0.986871 0.187673 0.088874
0.999969 0.185344 0.104114
0.071720 0.311003 0.164111
0.092414 0.311003 0.160880
0.093114 0.315837 0.093114
0.218452 0.314340 0.092522
0.312144 0.312144 0.091760
0.426720 0.331389 0.091101
0.522371 0.333211 0.090485
0.605299 0.328457 0.089969
0.678858 0.321074 0.089577
0.745191 0.312697 0.089299
0.805220 0.303843 0.089118
0.859241 0.294806 0.089001
0.907756 0.285731 0.088924
0.950541 0.276558 0.088875
0.986228 0.266934 0.088854
0.999969 0.257342 0.104113
0.071715 0.419919 0.174415
0.092409 0.419919 0.170649
0.090438 0.424260 0.090438
0.227370 0.423443 0.090257
0.327969 0.422338 0.090019
0.420904 0.420904 0.089759
0.517725 0.425342 0.089547
0.601584 0.420373 0.089352
0.675868 0.411494 0.089189
0.742796 0.401029 0.089060
0.803326 0.389779 0.088977
0.857739 0.378123 0.088912
0.906606 0.366320 0.088874
0.949579 0.354302 0.088848
0.985375 0.341650 0.088843
0.999969 0.326811 0.104112
0.071710 0.513249 0.176861
0.092408 0.513249 0.173029
0.089402 0.516733 0.089402
0.227531 0.516313 0.089344
0.328925 0.515694 0.089264
0.423042 0.514915 0.089179
0.514002 0.514002 0.089084
0.598462 0.508982 0.089019
0.673226 0.498777 0.088966
0.740634 0.486425 0.088918
0.801453 0.472957 0.088878
0.856209 0.458892 0.088854
0.905319 0.444555 0.088836
0.948459 0.429917 0.088836
0.984520 0.414419 0.088829
0.999969 0.395175 0.104111
0.071704 0.595448 0.175954
0.092404 0.595448 0.172253
0.089010 0.598196 0.089010
0.224356 0.597954 0.088988
0.324295 0.597622 0.088964
0.417316 0.597164 0.088939
0.507424 0.596622 0.088910
0.596007 0.596007 0.088877
0.671109 0.584529 0.088864
0.738740 0.570360 0.088845
0.799867 0.554760 0.088842
0.854861 0.538402 0.088833
0.904111 0.521628 0.088827
0.947452 0.504453 0.088822
0.983532 0.486171 0.088821
0.999969 0.463030 0.104110
0.071696 0.668900 0.173496
0.092395 0.668900 0.170016
0.088869 0.671187 0.088869
0.219770 0.671061 0.088862
0.317315 0.670815 0.088855
0.408299 0.670576 0.088844
0.496546 0.670207 0.088834
0.583433 0.669776 0.088838
0.669377 0.669377 0.088829
0.737168 0.653399 0.088825
0.798489 0.635716 0.088822
0.853653 0.617081 0.088821
0.903060 0.597919 0.088827
0.946467 0.578217 0.088826
0.982639 0.557277 0.088821
0.999969 0.530524 0.104110
0.071685 0.735663 0.170322
0.092389 0.735663 0.167145
0.088829 0.737504 0.088829
0.214664 0.737454 0.088828
0.309430 0.737208 0.088826
0.397963 0.737088 0.088824
0.483987 0.736884 0.088822
0.568695 0.736584 0.088821
0.652562 0.736339 0.088827
0.735966 0.735966 0.088827
0.797338 0.716205 0.088822
0.852625 0.695335 0.088823
0.902108 0.673778 0.088824
0.945619 0.651608 0.088825
0.981854 0.628033 0.088825
0.999969 0.597817 0.104108
0.071675 0.796162 0.166787
0.092385 0.796162 0.163969
0.088826 0.797743 0.088826
0.209283 0.797671 0.088826
0.301072 0.797547 0.088827
0.386959 0.797398 0.088821
0.470512 0.797253 0.088822
0.552865 0.797100 0.088823
0.634479 0.796923 0.088824
0.715593 0.796690 0.088826
0.796409 0.796409 0.088827
0.851783 0.773277 0.088828
0.901317 0.749404 0.088829
0.944856 0.724755 0.088829
0.981139 0.698518 0.088830
0.999969 0.665067 0.104107
0.071666 0.850838 0.163018
0.092373 0.850838 0.160570
0.088825 0.852192 0.088825
0.203755 0.852149 0.088826
0.292454 0.852065 0.088826
0.375621 0.851969 0.088826
0.456593 0.851913 0.088827
0.536464 0.851752 0.088828
0.615634 0.851648 0.088829
0.694361 0.851454 0.088830
0.772871 0.851260 0.088831
0.851088 0.851088 0.088832
0.900654 0.824819 0.088832
0.944260 0.797701 0.088832
0.980476 0.768818 0.088832
0.999969 0.732148 0.104105
0.071652 0.899904 0.159104
0.092364 0.899904 0.157088
0.088831 0.901063 0.088831
0.198190 0.901015 0.088831
0.283704 0.900963 0.088831
0.364083 0.900953 0.088831
0.442418 0.900866 0.088831
0.519707 0.900756 0.088832
0.596320 0.900633 0.088832
0.672599 0.900516 0.088832
0.748586 0.900361 0.088832
0.824434 0.900265 0.088831
0.900090 0.900090 0.088831
0.943715 0.870510 0.088830
0.979990 0.838967 0.088831
0.999969 0.799145 0.104102
0.071261 0.943026 0.154909
0.091287 0.943026 0.152982
0.088832 0.944102 0.088832
0.192520 0.944063 0.088832
0.274778 0.944000 0.088832
0.352292 0.943990 0.088832
0.427900 0.943879 0.088832
0.502563 0.943856 0.088831
0.576593 0.943776 0.088831
0.650276 0.943713 0.088830
0.723803 0.943574 0.088830
0.797097 0.943477 0.088829
0.870225 0.943376 0.088827
0.943231 0.943231 0.088826
0.979512 0.908986 0.088826
0.999969 0.866132 0.104099
0.068742 0.978900 0.149629
0.089900 0.978900 0.148478
0.088830 0.979878 0.088830
0.186544 0.979895 0.088830
0.265335 0.979897 0.088830
0.339808 0.979824 0.088830
0.412498 0.979783 0.088830
0.484343 0.979725 0.088829
0.555599 0.979692 0.088828
0.626581 0.979590 0.088827
0.697372 0.979521 0.088826
0.767939 0.979435 0.088826
0.838377 0.979345 0.088825
0.908710 0.979243 0.088824
0.979131 0.979131 0.088823
0.999969 0.933124 0.104096
0.065228 0.999969 0.142772
0.088007 0.999969 0.142773
0.104099 0.999969 0.104099
0.185337 0.999969 0.104099
0.257337 0.999969 0.104099
0.326809 0.999969 0.104099
0.395172 0.999969 0.104098
0.463029 0.999969 0.104098
0.530523 0.999969 0.104098
0.597816 0.999969 0.104097
0.665067 0.999969 0.104096
0.732147 0.999969 0.104096
0.799145 0.999969 0.104095
0.866132 0.999969 0.104094
0.933124 0.999969 0.104094
0.999969 0.999969 0.104093
0.071726 0.071726 0.191777
0.094354 0.062385 0.191777
0.139995 0.071725 0.191776
0.191776 0.071724 0.191776
0.310959 0.071723 0.236316
0.419922 0.071721 0.254927
0.513250 0.071722 0.259546
0.595450 0.071719 0.258260
0.668901 0.071716 0.254247
0.735665 0.071713 0.249004
0.796164 0.071712 0.243083
0.850819 0.071707 0.236745
0.899907 0.071706 0.230176
0.943029 0.071702 0.223350
0.978903 0.071697 0.216000
0.999969 0.071698 0.206800
0.062385 0.094355 0.191777
0.092416 0.092416 0.191777
0.138234 0.092420 0.191776
0.191776 0.092419 0.191776
0.310959 0.092418 0.235140
0.419921 0.092417 0.253181
0.513250 0.092415 0.257604
0.595450 0.092413 0.256303
0.668901 0.092410 0.252354
0.735665 0.092407 0.247243
0.796164 0.092404 0.241487
0.850819 0.092404 0.235347
0.899907 0.092405 0.229008
0.943029 0.092402 0.222445
0.978903 0.092398 0.215454
0.999969 0.092396 0.206800
0.071724 0.139995 0.191776
0.092419 0.138234 0.191776
0.103725 0.103725 0.198232
0.196753 0.102599 0.196753
0.322721 0.100301 0.225296
0.436382 0.096750 0.235137
0.530620 0.093837 0.234312
0.611835 0.091872 0.229760
0.683967 0.090637 0.224029
0.749036 0.089883 0.217966
0.808101 0.089436 0.211863
0.861445 0.089173 0.205804
0.909482 0.089019 0.199845
0.951923 0.088937 0.193909
0.987289 0.088887 0.187750
0.999969 0.104114 0.185344
0.071721 0.191777 0.191777
0.092417 0.191777 0.191777
0.098701 0.193780 0.193780
0.191777 0.191777 0.191777
0.317106 0.189497 0.189497
0.429221 0.186420 0.186420
0.524512 0.182392 0.182392
0.610556 0.174472 0.174472
0.687758 0.164002 0.164002
0.756429 0.153518 0.153518
0.817565 0.144081 0.144081
0.872064 0.136108 0.136108
0.920692 0.129628 0.129628
0.963405 0.124582 0.124582
0.993265 0.140964 0.140964
0.999969 0.191781 0.191781
0.071720 0.311003 0.236349
0.092413 0.311003 0.235175
0.092901 0.315312 0.219150
0.184101 0.313254 0.184101
0.311551 0.311551 0.181554
0.426697 0.315360 0.176872
0.524765 0.310449 0.169900
0.610562 0.302054 0.161505
0.686682 0.292234 0.152799
0.754656 0.282024 0.144556
0.815628 0.271896 0.137179
0.870200 0.262099 0.130867
0.918998 0.252790 0.125670
0.961904 0.243893 0.121561
0.993141 0.241235 0.135742
0.999969 0.261365 0.191780
0.071714 0.419919 0.254925
0.092409 0.419919 0.253184
0.090379 0.423956 0.227638
0.167194 0.424552 0.167194
0.309745 0.423238 0.163214
0.421175 0.421175 0.157929
0.521130 0.416998 0.152613
0.607342 0.407413 0.146617
0.683462 0.395773 0.140570
0.751599 0.383479 0.134813
0.812837 0.370956 0.129558
0.867745 0.358561 0.124971
0.916746 0.346357 0.121098
0.959940 0.334345 0.117992
0.993030 0.324185 0.128133
0.999969 0.329615 0.191778
0.071710 0.513249 0.259543
0.092406 0.513249 0.257601
0.089382 0.516578 0.227643
0.146713 0.519049 0.146713
0.299313 0.517982 0.144111
0.412246 0.516531 0.140714
0.514647 0.514647 0.136700
0.602220 0.504444 0.133103
0.679085 0.491059 0.129350
0.747779 0.476612 0.125681
0.809498 0.461706 0.122246
0.864751 0.446684 0.119148
0.914169 0.431798 0.116468
0.957673 0.416910 0.114290
0.992847 0.401901 0.117908
0.999969 0.397253 0.191777
0.071704 0.595448 0.258256
0.092404 0.595448 0.256299
0.089004 0.598102 0.224409
0.130930 0.601227 0.130930
0.287770 0.600509 0.129403
0.399710 0.599469 0.127410
0.500728 0.598233 0.124995
0.596728 0.596728 0.122334
