android/app/src/main/res/raw/super8_daylight_sharp.cube
LUT_3D_SIZE 6
-0.076127 -0.076127 -0.076127
0.133983 -0.076128 -0.076128
0.447000 -0.076132 -0.076132
0.745222 -0.076138 -0.076138
0.895383 -0.076146 -0.076146
0.999968 -0.076153 -0.076153
-0.076130 0.133983 -0.076130
0.133982 0.133982 -0.076131
0.446999 0.218259 -0.076134
0.745221 0.241284 -0.076140
0.895383 0.216470 -0.076148
0.999968 0.191738 -0.076155
-0.076141 0.446997 -0.076141
0.218256 0.446997 -0.076142
0.446997 0.446997 -0.076146
0.745221 0.495058 -0.076151
0.895382 0.445382 -0.076158
0.999968 0.397248 -0.076166
-0.076165 0.745220 -0.076165
0.241277 0.745220 -0.076166
0.495056 0.745219 -0.076169
0.745219 0.745219 -0.076175
0.895381 0.670741 -0.076180
0.999968 0.598747 -0.076182
-0.076193 0.895381 -0.076193
0.216462 0.895381 -0.076193
0.445378 0.895380 -0.076196
0.670740 0.895380 -0.076205
0.895380 0.895380 -0.076214
0.999968 0.799512 -0.076210
-0.076220 0.999968 -0.076220
0.191716 0.999968 -0.076220
0.397240 0.999968 -0.076223
0.598746 0.999968 -0.076227
0.799512 0.999968 -0.076235
0.999968 0.999968 -0.076248
-0.076128 -0.076128 0.133983
0.133983 -0.076129 0.133983
0.446999 -0.076132 0.218260
0.745222 -0.076138 0.241284
0.895383 -0.076146 0.216471
0.999968 -0.076154 0.191739
-0.076131 0.133982 0.133982
0.133982 0.133982 0.133982
0.463871 0.128036 0.128036
0.764221 0.109392 0.109392
0.916529 0.092675 0.092675
0.999968 0.133985 0.133985
-0.076142 0.446997 0.218256
0.104820 0.455674 0.104820
0.449092 0.449092 0.097851
0.756411 0.478977 0.089658
0.909823 0.426072 0.082098
0.999968 0.381703 0.133983
-0.076165 0.745220 0.241277
0.078677 0.749776 0.078677
0.473204 0.748438 0.076708
0.746138 0.746138 0.073443
0.901939 0.666553 0.071266
0.999968 0.591945 0.133976
-0.076193 0.895381 0.216462
0.067296 0.898851 0.067296
0.419603 0.898324 0.066634
0.662998 0.897360 0.065441
0.896122 0.896122 0.063880
0.999968 0.796852 0.133971
-0.076220 0.999968 0.191716
0.133968 0.999968 0.133968
0.381699 0.999968 0.133968
0.591944 0.999968 0.133966
0.796851 0.999968 0.133964
0.999968 0.999968 0.133961
-0.076129 -0.076129 0.447000
0.218261 -0.076130 0.447000
0.446999 -0.076133 0.446999
0.745221 -0.076139 0.495059
0.895383 -0.076147 0.445383
0.999968 -0.076154 0.397250
-0.076132 0.218260 0.447000
0.131973 0.131973 0.466728
0.464351 0.124930 0.464351
0.763598 0.106624 0.484693
0.915783 0.091333 0.429606
0.999968 0.133985 0.381704
-0.076143 0.446997 0.446997
0.102254 0.453375 0.453375
0.446996 0.446996 0.446996
0.754030 0.438554 0.438554
0.913121 0.421114 0.421114
0.999968 0.446992 0.446992
-0.076167 0.745219 0.495056
0.077975 0.749262 0.473802
0.416505 0.748590 0.416505
0.746203 0.746203 0.401318
0.907377 0.658275 0.384002
0.999968 0.622343 0.446989
-0.076194 0.895380 0.445378
0.067064 0.898634 0.419787
0.345061 0.902615 0.345061
0.640370 0.900539 0.332855
0.897205 0.897205 0.315360
0.999968 0.808917 0.446984
-0.076221 0.999968 0.397241
0.133968 0.999968 0.381699
0.446982 0.999968 0.446982
0.622339 0.999968 0.446981
0.808916 0.999968 0.446983
0.999968 0.999968 0.446981
-0.076131 -0.076131 0.745222
0.241286 -0.076132 0.745222
0.495059 -0.076135 0.745222
0.745221 -0.076141 0.745221
0.895383 -0.076149 0.670743
0.999968 -0.076156 0.598748
-0.076134 0.241286 0.745222
0.128306 0.128306 0.761044
0.486304 0.118849 0.764480
0.762053 0.101653 0.762053
0.914233 0.088791 0.676077
0.999968 0.133985 0.591945
-0.076144 0.495058 0.745221
0.099534 0.482670 0.761275
0.444137 0.444137 0.755552
0.753274 0.435652 0.753274
0.912230 0.418152 0.671533
0.999968 0.446992 0.622344
-0.076169 0.745219 0.745219
0.076662 0.748305 0.748305
0.411701 0.747906 0.747906
0.745218 0.745218 0.745218
0.903425 0.741878 0.741878
0.999968 0.745217 0.745217
-0.076196 0.895380 0.670740
0.066615 0.898297 0.663749
0.340801 0.901938 0.643230
0.733503 0.898261 0.733503
0.896131 0.896131 0.729814
0.999968 0.863378 0.745215
-0.076222 0.999968 0.598746
0.133968 0.999968 0.591944
0.446981 0.999968 0.622340
0.745214 0.999968 0.745214
0.863378 0.999968 0.745214
0.999968 0.999968 0.745213
-0.076134 -0.076134 0.895383
0.216466 -0.076135 0.895383
0.445384 -0.076137 0.895383
0.670743 -0.076143 0.895383
0.895382 -0.076153 0.895382
0.999968 -0.076158 0.799513
-0.076136 0.216466 0.895383
0.118639 0.118639 0.923743
0.435055 0.111048 0.922884
0.679962 0.097853 0.919157
0.912060 0.085317 0.912060
0.999968 0.133984 0.796852
-0.076146 0.445383 0.895383
0.096187 0.431286 0.918345
0.437792 0.437792 0.917505
0.676247 0.427792 0.914964
0.910792 0.413651 0.910792
0.999968 0.446991 0.808918
-0.076168 0.670742 0.895382
0.076754 0.669719 0.906065
0.408048 0.666344 0.908829
0.743958 0.743958 0.905327
0.902655 0.740612 0.902655
0.999968 0.745217 0.863379
-0.076202 0.895380 0.895380
0.065944 0.897778 0.897778
0.334230 0.900787 0.900787
0.732272 0.897562 0.897562
0.895379 0.895379 0.895379
0.999968 0.895379 0.895379
-0.076225 0.999968 0.799512
0.133967 0.999968 0.796851
0.446981 0.999968 0.808916
0.745214 0.999968 0.863378
0.895378 0.999968 0.895378
0.999968 0.999968 0.895366
-0.076136 -0.076136 0.999968
0.191745 -0.076137 0.999968
0.397252 -0.076139 0.999968
0.598749 -0.076144 0.999968
0.799513 -0.076152 0.999968
0.999968 -0.076165 0.999968
-0.076138 0.191744 0.999968
0.133977 0.133977 0.999968
0.381702 0.133977 0.999968
0.591945 0.133975 0.999968
0.796852 0.133986 0.999968
0.999968 0.133983 0.999968
-0.076146 0.397251 0.999968
0.133975 0.381701 0.999968
0.446995 0.446995 0.999968
0.622345 0.446994 0.999968
0.808919 0.446992 0.999968
0.999968 0.446990 0.999968
-0.076165 0.598748 0.999968
0.133983 0.591945 0.999968
0.446992 0.622344 0.999968
0.745218 0.745218 0.999968
0.863379 0.745217 0.999968
0.999968 0.745217 0.999968
-0.076190 0.799513 0.999968
0.133976 0.796852 0.999968
0.446987 0.808918 0.999968
0.745216 0.863379 0.999968
0.895379 0.895379 0.999968
0.999968 0.895379 0.999968
-0.076228 0.999968 0.999968
0.133966 0.999968 0.999968
0.446984 0.999968 0.999968
0.745214 0.999968 0.999968
0.895378 0.999968 0.999968
0.999968 0.999968 0.999968
