android/app/src/main/res/raw/super8_daylight_sharp.cube
LUT_3D_SIZE 16
-0.076127 -0.076127 -0.076127
-0.044193 -0.076127 -0.076127
0.069806 -0.076128 -0.076128
0.133983 -0.076128 -0.076128
0.215332 -0.076129 -0.076129
0.320595 -0.076130 -0.076130
0.447000 -0.076132 -0.076132
0.572804 -0.076133 -0.076133
0.674520 -0.076136 -0.076136
0.745222 -0.076138 -0.076138
0.798760 -0.076141 -0.076141
0.847647 -0.076143 -0.076143
0.895383 -0.076146 -0.076146
0.939691 -0.076149 -0.076149
0.977572 -0.076152 -0.076152
0.999968 -0.076153 -0.076153
-0.076128 -0.044193 -0.076128
-0.044193 -0.044193 -0.076128
0.069806 0.007839 -0.076128
0.133983 0.017471 -0.076128
0.215332 0.020702 -0.076129
0.320595 0.022491 -0.076130
0.446999 0.022894 -0.076132
0.572804 0.020888 -0.076134
0.674520 0.014556 -0.076136
0.745222 -0.011664 -0.076138
0.798760 -0.019708 -0.076141
0.847647 -0.025093 -0.076143
0.895383 -0.029707 -0.076146
0.939691 -0.034118 -0.076149
0.977572 -0.038700 -0.076152
0.999968 -0.044255 -0.076154
-0.076128 0.069808 -0.076128
0.007836 0.069808 -0.076128
0.069808 0.069808 -0.076129
0.133983 0.084938 -0.076129
0.215332 0.100946 -0.076130
0.320595 0.119360 -0.076131
0.446999 0.138017 -0.076133
0.572804 0.151048 -0.076134
0.674520 0.155163 -0.076136
0.745221 0.151895 -0.076139
0.798760 0.146030 -0.076141
0.847647 0.140361 -0.076144
0.895383 0.135314 -0.076147
0.939691 0.130365 -0.076150
0.977572 0.124945 -0.076153
0.999968 0.117699 -0.076154
-0.076130 0.133983 -0.076130
0.017467 0.133983 -0.076130
0.084937 0.133982 -0.076131
0.133982 0.133982 -0.076131
0.215363 0.159275 -0.076132
0.320595 0.188500 -0.076133
0.446999 0.218259 -0.076134
0.572803 0.239183 -0.076136
0.674520 0.246059 -0.076138
0.745221 0.241284 -0.076140
0.798760 0.232426 -0.076143
0.847647 0.223908 -0.076146
0.895383 0.216470 -0.076148
0.939691 0.209298 -0.076151
0.977572 0.201664 -0.076154
0.999968 0.191738 -0.076155
-0.076133 0.215362 -0.076133
0.020696 0.215362 -0.076133
0.100964 0.215362 -0.076133
0.159274 0.215362 -0.076134
0.215362 0.215362 -0.076135
0.320594 0.254969 -0.076136
0.446998 0.295334 -0.076137
0.572803 0.323760 -0.076139
0.674519 0.333205 -0.076141
0.745221 0.326861 -0.076143
0.798760 0.315016 -0.076145
0.847647 0.303648 -0.076148
0.895383 0.293765 -0.076151
0.939691 0.284316 -0.076153
0.977571 0.274276 -0.076155
0.999968 0.261339 -0.076157
-0.076137 0.320594 -0.076137
0.022466 0.320594 -0.076137
0.119356 0.320594 -0.076137
0.188498 0.320594 -0.076138
0.254968 0.320593 -0.076139
0.320593 0.320593 -0.076140
0.446998 0.371410 -0.076141
0.572803 0.407196 -0.076142
0.674519 0.419121 -0.076144
0.745221 0.411248 -0.076146
0.798760 0.396401 -0.076149
0.847647 0.382202 -0.076151
0.895382 0.369861 -0.076154
0.939691 0.358072 -0.076156
0.977571 0.345601 -0.076158
0.999968 0.329596 -0.076163
-0.076141 0.446997 -0.076141
0.022844 0.446997 -0.076142
0.138013 0.446997 -0.076142
0.218256 0.446997 -0.076142
0.295333 0.446997 -0.076143
0.371409 0.446997 -0.076144
0.446997 0.446997 -0.076146
0.572802 0.490127 -0.076147
0.674519 0.504510 -0.076149
0.745221 0.495058 -0.076151
0.798759 0.477243 -0.076153
0.847646 0.460172 -0.076155
0.895382 0.445382 -0.076158
0.939690 0.431278 -0.076163
0.977571 0.416359 -0.076165
0.999968 0.397248 -0.076166
-0.076147 0.572802 -0.076147
0.020782 0.572802 -0.076147
0.151040 0.572802 -0.076148
0.239179 0.572802 -0.076148
0.323758 0.572801 -0.076149
0.407215 0.572801 -0.076150
0.490126 0.572801 -0.076152
0.572801 0.572801 -0.076153
0.674518 0.589629 -0.076155
0.745220 0.578624 -0.076157
0.798759 0.557844 -0.076159
0.847646 0.537926 -0.076164
0.895382 0.520673 -0.076166
0.939690 0.504238 -0.076169
0.977571 0.486858 -0.076170
0.999968 0.464590 -0.076170
-0.076154 0.674518 -0.076154
0.014294 0.674518 -0.076155
0.155153 0.674518 -0.076154
0.246054 0.674518 -0.076155
0.333203 0.674518 -0.076156
0.419118 0.674518 -0.076157
0.504509 0.674518 -0.076158
0.589628 0.674518 -0.076163
0.674518 0.674518 -0.076165
0.745219 0.661950 -0.076167
0.798758 0.638207 -0.076169
0.847665 0.615460 -0.076171
0.895382 0.595716 -0.076173
0.939690 0.576954 -0.076174
0.977571 0.557115 -0.076176
0.999968 0.531727 -0.076175
-0.076165 0.745220 -0.076165
-0.012019 0.745220 -0.076165
0.151882 0.745220 -0.076165
0.241277 0.745220 -0.076166
0.326858 0.745219 -0.076167
0.411245 0.745219 -0.076168
0.495056 0.745219 -0.076169
0.578623 0.745219 -0.076171
0.661949 0.745219 -0.076173
0.745219 0.745219 -0.076175
0.798758 0.718496 -0.076177
0.847665 0.692897 -0.076179
0.895381 0.670741 -0.076180
0.939689 0.649613 -0.076182
0.977570 0.627298 -0.076183
0.999968 0.598747 -0.076182
-0.076174 0.798758 -0.076174
-0.019924 0.798758 -0.076174
0.146017 0.798758 -0.076174
0.232414 0.798758 -0.076174
0.315011 0.798758 -0.076175
0.396414 0.798758 -0.076176
0.477240 0.798758 -0.076177
0.557842 0.798758 -0.076179
0.638206 0.798758 -0.076181
0.718495 0.798757 -0.076184
0.798757 0.798757 -0.076186
0.847665 0.770343 -0.076188
0.895381 0.745656 -0.076189
0.939689 0.722213 -0.076190
0.977570 0.697506 -0.076191
0.999968 0.665759 -0.076189
-0.076183 0.847665 -0.076183
-0.025281 0.847665 -0.076183
0.140345 0.847665 -0.076183
0.223900 0.847665 -0.076184
0.303648 0.847665 -0.076184
0.382207 0.847665 -0.076185
0.460179 0.847665 -0.076186
0.537937 0.847665 -0.076188
0.615459 0.847664 -0.076190
0.692896 0.847664 -0.076193
0.770343 0.847664 -0.076195
0.847664 0.847664 -0.076201
0.895380 0.820519 -0.076202
0.939689 0.794791 -0.076203
0.977569 0.767526 -0.076203
0.999968 0.732680 -0.076201
-0.076193 0.895381 -0.076193
-0.029883 0.895381 -0.076193
0.135292 0.895381 -0.076193
0.216462 0.895381 -0.076193
0.293756 0.895380 -0.076194
0.369854 0.895380 -0.076195
0.445378 0.895380 -0.076196
0.520670 0.895380 -0.076201
0.595714 0.895380 -0.076203
0.670740 0.895380 -0.076205
0.745655 0.895380 -0.076208
0.820519 0.895380 -0.076211
0.895380 0.895380 -0.076214
0.939688 0.867266 -0.076214
0.977569 0.837525 -0.076213
0.999968 0.799512 -0.076210
-0.076205 0.939688 -0.076205
-0.034286 0.939688 -0.076205
0.130341 0.939688 -0.076206
0.209292 0.939688 -0.076206
0.284306 0.939688 -0.076207
0.358064 0.939688 -0.076208
0.431273 0.939688 -0.076209
0.504234 0.939688 -0.076210
0.576952 0.939688 -0.076212
0.649611 0.939688 -0.076214
0.722211 0.939688 -0.076217
0.794790 0.939688 -0.076220
0.867266 0.939687 -0.076223
0.939687 0.939687 -0.076227
0.977568 0.907508 -0.076225
0.999968 0.866343 -0.076220
-0.076214 0.977569 -0.076214
-0.038859 0.977569 -0.076214
0.124918 0.977569 -0.076214
0.201651 0.977569 -0.076215
0.274261 0.977569 -0.076215
0.345594 0.977569 -0.076216
0.416377 0.977569 -0.076217
0.486853 0.977568 -0.076219
0.557111 0.977568 -0.076220
0.627295 0.977568 -0.076223
0.697504 0.977568 -0.076225
0.767525 0.977568 -0.076227
0.837524 0.977568 -0.076231
0.907508 0.977568 -0.076234
0.977567 0.977567 -0.076241
0.999968 0.933234 -0.076232
-0.076220 0.999968 -0.076220
-0.044396 0.999968 -0.076220
0.117664 0.999968 -0.076220
0.191716 0.999968 -0.076220
0.261327 0.999968 -0.076221
0.329590 0.999968 -0.076222
0.397240 0.999968 -0.076223
0.464586 0.999968 -0.076224
0.531723 0.999968 -0.076226
0.598746 0.999968 -0.076227
0.665758 0.999968 -0.076229
0.732678 0.999968 -0.076232
0.799512 0.999968 -0.076235
0.866343 0.999968 -0.076241
0.933234 0.999968 -0.076244
0.999968 0.999968 -0.076248
-0.076127 -0.076127 -0.044193
-0.044193 -0.076127 -0.044193
0.069806 -0.076128 0.007840
0.133983 -0.076128 0.017472
0.215332 -0.076129 0.020703
0.320595 -0.076130 0.022491
0.447000 -0.076132 0.022896
0.572804 -0.076133 0.020889
0.674520 -0.076136 0.014558
0.745222 -0.076138 -0.011662
0.798760 -0.076141 -0.019707
0.847647 -0.076143 -0.025092
0.895383 -0.076146 -0.029707
0.939691 -0.076149 -0.034117
0.977572 -0.076152 -0.038700
0.999968 -0.076153 -0.044255
-0.076128 -0.044193 -0.044193
-0.044193 -0.044193 -0.044193
0.069806 -0.044194 -0.044194
0.133983 -0.044196 -0.044196
0.215332 -0.044198 -0.044198
0.320595 -0.044201 -0.044201
0.447000 -0.044205 -0.044205
0.572804 -0.044210 -0.044210
0.674520 -0.044212 -0.044212
0.745222 -0.044219 -0.044219
0.798760 -0.044227 -0.044227
0.847647 -0.044228 -0.044228
0.895383 -0.044236 -0.044236
0.939691 -0.044245 -0.044245
0.977572 -0.044250 -0.044250
0.999968 -0.044254 -0.044254
-0.076128 0.069808 0.007836
-0.044196 0.069808 -0.044196
0.069808 0.069808 -0.044196
0.133983 0.083050 -0.044198
0.215332 0.098118 -0.044200
0.320595 0.115873 -0.044204
0.446999 0.134021 -0.044207
0.572804 0.146781 -0.044212
0.674520 0.150959 -0.044215
0.745222 0.148001 -0.044221
0.798760 0.142556 -0.044229
0.847647 0.137340 -0.044231
0.895383 0.132780 -0.044238
0.939691 0.128415 -0.044244
0.977572 0.123748 -0.044251
0.999968 0.117699 -0.044256
-0.076130 0.133983 0.017467
-0.044201 0.133983 -0.044201
0.083049 0.133982 -0.044202
0.133982 0.133982 -0.044203
0.215363 0.158362 -0.044206
0.320595 0.187052 -0.044208
0.446999 0.216455 -0.044212
0.572803 0.237163 -0.044213
0.674520 0.244017 -0.044219
0.745221 0.239368 -0.044226
0.798760 0.230693 -0.044227
0.847647 0.222400 -0.044235
0.895383 0.215197 -0.044243
0.939691 0.208325 -0.044248
0.977572 0.201068 -0.044255
0.999968 0.191738 -0.044259
-0.076133 0.215362 0.020696
-0.044208 0.215362 -0.044208
0.098140 0.215362 -0.044209
0.158361 0.215362 -0.044211
0.215362 0.215362 -0.044210
0.320594 0.254418 -0.044212
0.446998 0.294431 -0.044216
0.572803 0.322634 -0.044221
0.674519 0.331994 -0.044226
0.745221 0.325706 -0.044227
0.798760 0.313960 -0.044234
0.847647 0.302705 -0.044241
0.895383 0.292976 -0.044246
0.939691 0.283702 -0.044253
0.977571 0.273895 -0.044261
0.999968 0.261339 -0.044264
-0.076137 0.320594 0.022466
-0.044216 0.320594 -0.044216
0.115869 0.320594 -0.044217
0.187060 0.320594 -0.044218
0.254417 0.320593 -0.044221
0.320593 0.320593 -0.044224
0.446998 0.371005 -0.044227
0.572802 0.406590 -0.044225
0.674519 0.418398 -0.044231
0.745221 0.410510 -0.044236
0.798760 0.395685 -0.044243
0.847647 0.381567 -0.044248
0.895382 0.369309 -0.044255
0.939691 0.357630 -0.044262
0.977571 0.345350 -0.044263
0.999968 0.329596 -0.044266
-0.076142 0.446997 0.022844
-0.044230 0.446997 -0.044230
0.134017 0.446997 -0.044225
0.216452 0.446997 -0.044226
0.294429 0.446997 -0.044228
0.371004 0.446997 -0.044231
0.446997 0.446997 -0.044235
0.572802 0.489854 -0.044239
0.674519 0.504106 -0.044244
0.745221 0.494579 -0.044247
0.798759 0.476770 -0.044253
0.847646 0.459743 -0.044260
0.895382 0.444995 -0.044261
0.939690 0.430971 -0.044268
0.977571 0.416155 -0.044273
0.999968 0.397248 -0.044276
-0.076147 0.572802 0.020782
-0.044240 0.572802 -0.044240
0.146774 0.572802 -0.044241
0.237159 0.572802 -0.044242
0.322632 0.572801 -0.044245
0.406588 0.572801 -0.044245
0.489853 0.572801 -0.044249
0.572801 0.572801 -0.044254
0.674518 0.589440 -0.044258
0.745220 0.578347 -0.044263
0.798759 0.557500 -0.044264
0.847646 0.537641 -0.044270
0.895382 0.520396 -0.044276
0.939690 0.504007 -0.044280
0.977571 0.486716 -0.044284
0.999968 0.464590 -0.044285
-0.076154 0.674518 0.014294
-0.044257 0.674518 -0.044257
0.150949 0.674518 -0.044257
0.244012 0.674518 -0.044259
0.331991 0.674518 -0.044260
0.418396 0.674518 -0.044263
0.504104 0.674518 -0.044263
0.589440 0.674518 -0.044268
0.674518 0.674518 -0.044273
0.745219 0.661845 -0.044278
0.798759 0.638015 -0.044280
0.847665 0.615246 -0.044286
0.895382 0.595533 -0.044292
0.939690 0.576799 -0.044297
0.977571 0.557018 -0.044297
0.999968 0.531727 -0.044297
-0.076165 0.745220 -0.012018
-0.044274 0.745220 -0.044274
0.147992 0.745220 -0.044274
0.239362 0.745220 -0.044275
0.325702 0.745219 -0.044277
0.410506 0.745219 -0.044278
0.494578 0.745219 -0.044281
0.578346 0.745219 -0.044286
0.661845 0.745219 -0.044292
0.745219 0.745219 -0.044296
0.798758 0.718394 -0.044301
0.847665 0.692820 -0.044305
0.895381 0.670609 -0.044310
0.939689 0.649475 -0.044315
0.977570 0.627213 -0.044313
0.999968 0.598748 -0.044315
-0.076174 0.798758 -0.019923
-0.044295 0.798758 -0.044295
0.142543 0.798758 -0.044296
0.230686 0.798758 -0.044297
0.313953 0.798758 -0.044296
0.395698 0.798758 -0.044299
0.476767 0.798758 -0.044303
0.557498 0.798758 -0.044307
0.638014 0.798758 -0.044313
0.718393 0.798757 -0.044316
0.798757 0.798757 -0.044325
0.847665 0.770276 -0.044329
0.895381 0.745560 -0.044332
0.939689 0.722112 -0.044332
0.977570 0.697437 -0.044333
0.999968 0.665760 -0.044331
-0.076183 0.847665 -0.025281
-0.044315 0.847665 -0.044315
0.137320 0.847665 -0.044315
0.222392 0.847665 -0.044317
0.302705 0.847665 -0.044319
0.381572 0.847665 -0.044321
0.459739 0.847665 -0.044325
0.537652 0.847665 -0.044330
0.615245 0.847665 -0.044332
0.692819 0.847664 -0.044339
0.770275 0.847664 -0.044347
0.847664 0.847664 -0.044350
0.895380 0.820483 -0.044353
0.939689 0.794743 -0.044354
0.977569 0.767477 -0.044354
0.999968 0.732680 -0.044347
-0.076193 0.895381 -0.029883
-0.044339 0.895381 -0.044339
0.132757 0.895381 -0.044340
0.215188 0.895381 -0.044341
0.292977 0.895380 -0.044343
0.369302 0.895380 -0.044346
0.444990 0.895380 -0.044349
0.520392 0.895380 -0.044348
0.595531 0.895380 -0.044353
0.670608 0.895380 -0.044359
0.745559 0.895380 -0.044365
0.820482 0.895380 -0.044373
0.895380 0.895380 -0.044383
0.939688 0.867256 -0.044383
0.977569 0.837515 -0.044380
0.999968 0.799512 -0.044371
-0.076205 0.939688 -0.034286
-0.044361 0.939688 -0.044361
0.128388 0.939688 -0.044361
0.208318 0.939688 -0.044363
0.283692 0.939688 -0.044364
0.357622 0.939688 -0.044367
0.430967 0.939688 -0.044367
0.504003 0.939688 -0.044372
0.576797 0.939688 -0.044377
0.649473 0.939688 -0.044383
0.722110 0.939688 -0.044387
0.794742 0.939688 -0.044396
0.867255 0.939687 -0.044402
0.939687 0.939687 -0.044412
0.977568 0.907492 -0.044407
0.999968 0.866343 -0.044398
-0.076214 0.977569 -0.038859
-0.044383 0.977569 -0.044383
0.123715 0.977569 -0.044384
0.201056 0.977569 -0.044385
0.273884 0.977569 -0.044383
0.345343 0.977569 -0.044386
0.416147 0.977569 -0.044389
0.486711 0.977568 -0.044393
0.557014 0.977568 -0.044398
0.627210 0.977568 -0.044403
0.697435 0.977568 -0.044407
0.767475 0.977568 -0.044415
0.837514 0.977568 -0.044418
0.907491 0.977568 -0.044428
0.977567 0.977567 -0.044436
0.999968 0.933234 -0.044422
-0.076220 0.999968 -0.044396
-0.044396 0.999968 -0.044396
0.117665 0.999968 -0.044397
0.191716 0.999968 -0.044398
0.261327 0.999968 -0.044399
0.329590 0.999968 -0.044401
0.397240 0.999968 -0.044401
0.464586 0.999968 -0.044405
0.531723 0.999968 -0.044409
0.598746 0.999968 -0.044414
0.665758 0.999968 -0.044420
0.732678 0.999968 -0.044421
0.799512 0.999968 -0.044430
0.866343 0.999968 -0.044436
0.933234 0.999968 -0.044445
0.999968 0.999968 -0.044453
-0.076128 -0.076128 0.069806
0.007840 -0.076128 0.069806
0.069806 -0.076128 0.069806
0.133983 -0.076128 0.084938
0.215332 -0.076129 0.100947
0.320595 -0.076130 0.119360
0.447000 -0.076132 0.138018
0.572804 -0.076134 0.151045
0.674520 -0.076136 0.155163
0.745222 -0.076138 0.151895
0.798760 -0.076141 0.146030
0.847647 -0.076143 0.140362
0.895383 -0.076146 0.135314
0.939691 -0.076149 0.130366
0.977572 -0.076152 0.124946
0.999968 -0.076154 0.117699
-0.076128 0.007840 0.069806
-0.044194 -0.044194 0.069806
0.069806 -0.044194 0.069806
0.133983 -0.044196 0.083050
0.215332 -0.044198 0.098119
0.320595 -0.044201 0.115873
0.446999 -0.044206 0.134022
0.572804 -0.044210 0.146781
0.674520 -0.044212 0.150960
0.745222 -0.044219 0.148002
0.798760 -0.044227 0.142557
0.847647 -0.044229 0.137340
0.895383 -0.044237 0.132780
0.939691 -0.044245 0.128415
0.977572 -0.044250 0.123748
0.999968 -0.044254 0.117699
-0.076129 0.069808 0.069808
-0.044196 0.069808 0.069808
0.069808 0.069808 0.069808
0.137455 0.068468 0.068468
0.224451 0.065907 0.065907
0.340833 0.060673 0.060673
0.473746 0.055281 0.055281
0.597868 0.050639 0.050639
0.692456 0.046906 0.046906
0.757813 0.043966 0.043966
0.809132 0.041659 0.041659
0.857799 0.039862 0.039862
0.905186 0.038478 0.038478
0.949075 0.037433 0.037433
0.986547 0.036684 0.036684
0.999968 0.069804 0.069804
-0.076130 0.133983 0.084937
-0.044201 0.133983 0.083049
0.063757 0.135635 0.063757
0.134434 0.134434 0.061216
0.222818 0.153538 0.057989
0.336384 0.177392 0.054381
0.468085 0.200815 0.050814
0.593353 0.215324 0.047573
0.689723 0.217430 0.044795
0.756177 0.211034 0.042501
0.807972 0.202404 0.040630
0.856880 0.194803 0.039129
0.904377 0.188242 0.037941
0.948418 0.182087 0.037037
0.986078 0.175711 0.036382
0.999968 0.172996 0.069803
-0.076133 0.215362 0.100964
-0.044209 0.215362 0.098140
0.053244 0.219171 0.053244
0.149491 0.217977 0.051882
0.216239 0.216239 0.049997
0.328732 0.253947 0.048152
0.460657 0.291196 0.046141
0.587619 0.315109 0.044140
0.686341 0.320086 0.042299
0.754049 0.311457 0.040682
0.806496 0.299061 0.039297
0.855592 0.287932 0.038144
0.903321 0.278328 0.037212
0.947545 0.269260 0.036485
0.985320 0.259827 0.035957
0.999968 0.249910 0.069803
-0.076137 0.320594 0.119357
-0.044216 0.320594 0.115870
0.046000 0.325742 0.046000
0.170306 0.324783 0.045337
0.249725 0.323441 0.044376
0.321728 0.321728 0.043192
0.453668 0.371629 0.042144
0.582069 0.404720 0.040998
0.682822 0.413034 0.039866
0.751876 0.402820 0.038820
0.804878 0.387113 0.037878
0.854163 0.372842 0.037063
0.902145 0.360527 0.036385
0.946519 0.348856 0.035847
0.984437 0.336657 0.035455
0.999968 0.321705 0.069802
-0.076142 0.446997 0.138013
-0.044230 0.446997 0.134017
0.041306 0.452142 0.041306
0.192801 0.451528 0.040967
0.284623 0.450609 0.040464
0.368158 0.449445 0.039816
0.448074 0.448074 0.039066
0.577341 0.490161 0.038441
0.679695 0.502073 0.037791
0.749847 0.490534 0.037151
0.803311 0.471741 0.036553
0.852733 0.454463 0.036018
0.900864 0.439535 0.035560
0.945361 0.425400 0.035193
0.983442 0.410614 0.034928
0.999968 0.391446 0.069800
-0.076148 0.572802 0.151040
-0.044240 0.572802 0.146774
0.038231 0.576948 0.038231
0.208441 0.576599 0.038049
0.308690 0.576086 0.037775
0.400050 0.575392 0.037413
0.487809 0.574601 0.036984
0.573637 0.573637 0.036510
0.677174 0.589122 0.036153
0.748072 0.576432 0.035791
0.801885 0.554664 0.035435
0.851462 0.534501 0.035106
0.899635 0.517009 0.034824
0.944322 0.500496 0.034593
0.982420 0.483127 0.034435
0.999968 0.460216 0.069799
-0.076155 0.674518 0.155153
-0.044257 0.674518 0.150949
0.036227 0.677253 0.036227
0.212741 0.677122 0.036125
0.315415 0.676845 0.035972
0.409137 0.676486 0.035771
0.499358 0.676099 0.035524
0.587791 0.675594 0.035248
0.675141 0.675141 0.034956
0.746735 0.661282 0.034764
0.800720 0.636575 0.034566
0.850307 0.613465 0.034387
0.898570 0.593494 0.034225
0.943277 0.574604 0.034095
0.981495 0.554713 0.034017
0.999968 0.528363 0.069797
-0.076165 0.745220 0.151882
-0.044273 0.745220 0.147992
0.034935 0.746954 0.034935
0.207791 0.746875 0.034880
0.308193 0.746699 0.034795
0.399885 0.746548 0.034682
0.488206 0.746411 0.034543
0.574889 0.746108 0.034388
0.660503 0.745851 0.034221
0.745527 0.745527 0.034053
0.799748 0.717905 0.033958
0.849379 0.691944 0.033868
0.897619 0.669431 0.033788
0.942417 0.648229 0.033730
0.980684 0.625833 0.033698
0.999968 0.596165 0.069795
-0.076174 0.798758 0.146018
-0.044295 0.798758 0.142543
0.034131 0.800087 0.034131
0.199844 0.800034 0.034105
0.296377 0.799927 0.034061
0.384570 0.799797 0.033998
0.469572 0.799675 0.033930
0.552991 0.799488 0.033842
0.635490 0.799359 0.033757
0.717426 0.799157 0.033666
0.798945 0.798945 0.033586
0.848555 0.770046 0.033551
0.896791 0.745048 0.033524
0.941601 0.721433 0.033504
0.979905 0.696633 0.033498
0.999968 0.663804 0.069796
-0.076183 0.847665 0.140345
-0.044315 0.847665 0.137320
0.033676 0.848954 0.033676
0.192509 0.848897 0.033662
0.285436 0.848836 0.033642
0.370371 0.848713 0.033614
0.452228 0.848639 0.033582
0.532611 0.848510 0.033542
0.612092 0.848414 0.033505
0.691010 0.848256 0.033473
0.769597 0.848091 0.033440
0.847914 0.847914 0.033423
0.896150 0.820393 0.033420
0.940945 0.794423 0.033419
0.979284 0.767086 0.033420
0.999968 0.731295 0.069791
-0.076193 0.895381 0.135292
-0.044339 0.895381 0.132757
0.033467 0.896550 0.033467
0.186207 0.896501 0.033462
0.276028 0.896476 0.033455
0.358148 0.896410 0.033446
0.437306 0.896378 0.033436
0.515036 0.896267 0.033426
0.591895 0.896129 0.033420
0.668235 0.896011 0.033417
0.744318 0.895896 0.033423
0.820053 0.895772 0.033438
0.895595 0.895595 0.033468
0.940334 0.867236 0.033470
0.978646 0.837367 0.033462
0.999968 0.798493 0.069787
-0.076206 0.939688 0.130341
-0.044361 0.939688 0.128388
0.033419 0.940828 0.033419
0.180301 0.940786 0.033419
0.267173 0.940721 0.033421
0.346622 0.940708 0.033423
0.423226 0.940592 0.033428
0.498474 0.940512 0.033435
0.572858 0.940441 0.033450
0.646780 0.940332 0.033470
0.720395 0.940226 0.033494
0.793784 0.940100 0.033532
0.866956 0.940023 0.033579
0.939907 0.939907 0.033641
0.978179 0.907532 0.033613
0.999968 0.865725 0.069786
-0.076214 0.977569 0.124918
-0.044383 0.977569 0.123715
0.033472 0.978579 0.033472
0.174114 0.978544 0.033474
0.257922 0.978546 0.033480
0.334590 0.978517 0.033489
0.408507 0.978471 0.033502
0.481129 0.978415 0.033521
0.552911 0.978324 0.033542
0.624296 0.978267 0.033572
0.695399 0.978188 0.033610
0.766178 0.978096 0.033657
0.836808 0.977997 0.033713
0.907259 0.977880 0.033787
0.977813 0.977813 0.033868
0.999968 0.932976 0.069782
-0.076220 0.999968 0.117664
-0.044396 0.999968 0.117665
0.069786 0.999968 0.069786
0.172998 0.999968 0.069786
0.249908 0.999968 0.069786
0.321704 0.999968 0.069786
0.391444 0.999968 0.069785
0.460215 0.999968 0.069785
0.528362 0.999968 0.069784
0.596165 0.999968 0.069784
0.663804 0.999968 0.069783
0.731295 0.999968 0.069782
0.798493 0.999968 0.069781
0.865725 0.999968 0.069780
0.932976 0.999968 0.069780
0.999968 0.999968 0.069779
-0.076128 -0.076128 0.133983
0.017472 -0.076128 0.133983
0.084938 -0.076128 0.133983
0.133983 -0.076129 0.133983
0.215332 -0.076129 0.159249
0.320595 -0.076131 0.188500
0.446999 -0.076132 0.218260
0.572804 -0.076134 0.239183
0.674520 -0.076136 0.246059
0.745222 -0.076138 0.241284
0.798760 -0.076141 0.232426
0.847647 -0.076143 0.223909
0.895383 -0.076146 0.216471
0.939691 -0.076149 0.209299
0.977572 -0.076152 0.201664
0.999968 -0.076154 0.191739
-0.076128 0.017472 0.133983
-0.044194 -0.044194 0.133983
0.083050 -0.044195 0.133983
0.133983 -0.044196 0.133983
0.215332 -0.044199 0.158341
0.320595 -0.044202 0.187053
0.446999 -0.044205 0.216456
0.572804 -0.044211 0.237163
0.674520 -0.044213 0.244018
0.745222 -0.044220 0.239369
0.798760 -0.044227 0.230694
0.847647 -0.044229 0.222401
0.895383 -0.044237 0.215197
0.939691 -0.044245 0.208325
0.977572 -0.044250 0.201069
0.999968 -0.044255 0.191739
-0.076129 0.084938 0.133983
-0.044196 0.083050 0.133983
0.069352 0.069352 0.138073
0.137136 0.068009 0.137136
0.224698 0.065082 0.155960
0.340616 0.059924 0.180434
0.473147 0.054750 0.203439
0.597325 0.050287 0.217028
0.692191 0.046670 0.218389
0.757617 0.043803 0.211548
0.809021 0.041546 0.202765
0.857719 0.039787 0.195049
0.905096 0.038419 0.188421
0.948988 0.037392 0.182231
0.986486 0.036652 0.175818
0.999968 0.069804 0.172996
-0.076131 0.133982 0.133982
-0.044202 0.133982 0.133982
0.062878 0.135258 0.135258
0.133982 0.133982 0.133982
0.220166 0.132541 0.132541
0.331752 0.130596 0.130596
0.463871 0.128036 0.128036
0.595462 0.122997 0.122997
0.696415 0.116264 0.116264
0.764221 0.109392 0.109392
0.817306 0.103022 0.103022
0.867902 0.097422 0.097422
0.916529 0.092675 0.092675
0.961113 0.088804 0.088804
0.992828 0.100860 0.100860
0.999968 0.133985 0.133985
-0.076133 0.215362 0.159274
-0.044209 0.215362 0.158362
0.052766 0.218754 0.150121
0.129127 0.217111 0.129127
0.215778 0.215778 0.127508
0.328711 0.240022 0.124526
0.464290 0.265874 0.120064
0.595471 0.281811 0.114641
0.695174 0.282159 0.108913
0.762600 0.272146 0.103346
0.815615 0.260141 0.098190
0.866113 0.249821 0.093602
0.914749 0.240930 0.089648
0.959498 0.232673 0.086386
0.992747 0.226962 0.097170
0.999968 0.229420 0.133985
-0.076137 0.320594 0.188498
-0.044217 0.320594 0.187060
0.045767 0.325381 0.170665
0.118332 0.326102 0.118332
0.235362 0.324528 0.115756
0.322053 0.322053 0.112310
0.458799 0.364741 0.108791
0.590674 0.391443 0.104751
0.691544 0.394543 0.100586
0.759873 0.381620 0.096497
0.813187 0.365190 0.092625
0.863692 0.351050 0.089103
0.912485 0.338868 0.086011
