android/app/src/main/res/raw/super8_night.cube
LUT_3D_SIZE 6
0.071728 0.071728 0.071728
0.191776 0.071725 0.071725
0.513250 0.071723 0.071723
0.735665 0.071713 0.071713
0.899907 0.071706 0.071706
0.999969 0.071698 0.071698
0.071722 0.191778 0.071722
0.191777 0.191777 0.071720
0.513250 0.259545 0.071718
0.735665 0.249003 0.071712
0.899906 0.230175 0.071703
0.999969 0.206800 0.071695
0.071710 0.513249 0.071710
0.259543 0.513249 0.071709
0.513248 0.513248 0.071707
0.735664 0.491418 0.071699
0.899906 0.451615 0.071689
0.999969 0.402412 0.071684
0.071685 0.735663 0.071685
0.248999 0.735663 0.071684
0.491416 0.735663 0.071682
0.735662 0.735662 0.071676
0.899905 0.675498 0.071668
0.999969 0.601071 0.071666
0.071652 0.899904 0.071652
0.230165 0.899904 0.071651
0.451611 0.899904 0.071650
0.675497 0.899904 0.071644
0.899903 0.899903 0.071632
0.999969 0.800451 0.071636
0.071626 0.999969 0.071626
0.206784 0.999969 0.071626
0.402404 0.999969 0.071620
0.601069 0.999969 0.071616
0.800451 0.999969 0.071607
0.999969 0.999969 0.071596
0.071726 0.071726 0.191777
0.191776 0.071724 0.191776
0.513250 0.071722 0.259546
0.735665 0.071713 0.249004
0.899907 0.071706 0.230176
0.999969 0.071698 0.206800
0.071721 0.191777 0.191777
0.191777 0.191777 0.191777
0.524512 0.182392 0.182392
0.756429 0.153518 0.153518
0.920692 0.129628 0.129628
0.999969 0.191781 0.191781
0.071710 0.513249 0.259543
0.146713 0.519049 0.146713
0.514647 0.514647 0.136700
0.747779 0.476612 0.125681
0.914169 0.431798 0.116468
0.999969 0.397253 0.191777
0.071685 0.735663 0.248999
0.112688 0.740445 0.112688
0.469728 0.739063 0.110639
0.736616 0.736616 0.107411
0.906374 0.670863 0.105401
0.999969 0.598754 0.191769
0.071652 0.899904 0.230165
0.102020 0.903322 0.102020
0.424734 0.902790 0.101491
0.667368 0.901865 0.100570
0.900627 0.900627 0.099406
0.999969 0.799516 0.191759
0.071626 0.999969 0.206784
0.191753 0.999969 0.191753
0.397242 0.999969 0.191751
0.598751 0.999969 0.191749
0.799515 0.999969 0.191744
0.999969 0.999969 0.191738
0.071724 0.071724 0.513251
0.259547 0.071722 0.513250
0.513250 0.071720 0.513250
0.735665 0.071714 0.491419
0.899907 0.071705 0.451616
0.999969 0.071697 0.402413
0.071720 0.259546 0.513250
0.188611 0.188611 0.526390
0.524820 0.177494 0.524820
0.755796 0.149381 0.484297
0.919953 0.127841 0.436025
0.999969 0.191781 0.397255
0.071708 0.513248 0.513248
0.142979 0.517545 0.517545
0.513248 0.513248 0.513248
0.745208 0.507581 0.507581
0.917395 0.495679 0.495679
0.999969 0.513244 0.513244
0.071683 0.735663 0.491416
0.111949 0.740006 0.470420
0.492504 0.739286 0.492504
0.736692 0.736692 0.481872
0.911736 0.688611 0.469422
0.999969 0.657563 0.513242
0.071650 0.899904 0.451611
0.101831 0.903109 0.424931
0.439903 0.907053 0.439903
0.671170 0.905040 0.430110
0.901685 0.901685 0.415493
0.999969 0.823623 0.513238
0.071625 0.999969 0.402404
0.191752 0.999969 0.397242
0.513237 0.999969 0.513237
0.657560 0.999969 0.513236
0.823622 0.999969 0.513235
0.999969 0.999969 0.513233
0.071720 0.071720 0.735666
0.249005 0.071722 0.735666
0.491419 0.071718 0.735665
0.735665 0.071711 0.735665
0.899906 0.071701 0.675500
0.999969 0.071694 0.601072
0.071720 0.249005 0.735666
0.182809 0.182809 0.752881
0.487502 0.168017 0.756766
0.754030 0.142112 0.754030
0.918479 0.124568 0.680595
0.999969 0.191780 0.598755
0.071706 0.491418 0.735664
0.139081 0.481400 0.753148
0.511351 0.511351 0.746851
0.744325 0.505642 0.744325
0.916522 0.493638 0.700266
0.999969 0.513244 0.657564
0.071683 0.735663 0.735663
0.110588 0.738968 0.738968
0.489156 0.738547 0.738547
0.735662 0.735662 0.735662
0.907835 0.732068 0.732068
0.999969 0.735660 0.735660
0.071650 0.899904 0.675497
0.101479 0.902764 0.668031
0.436527 0.906373 0.674073
0.723390 0.902728 0.723390
0.900636 0.900636 0.719698
0.999969 0.858841 0.735658
0.071620 0.999969 0.601070
0.191751 0.999969 0.598752
0.513236 0.999969 0.657560
0.735657 0.999969 0.735657
0.858840 0.999969 0.735656
0.999969 0.999969 0.735656
0.071719 0.071719 0.899907
0.230180 0.071718 0.899907
0.451617 0.071714 0.899907
0.675500 0.071708 0.899907
0.899906 0.071700 0.899906
0.999969 0.071688 0.800452
0.071716 0.230180 0.899907
0.167679 0.167679 0.927688
0.444007 0.156020 0.926869
0.684724 0.136705 0.923227
0.916284 0.120254 0.916284
0.999969 0.191778 0.799517
0.071707 0.451616 0.899907
0.134390 0.438184 0.922459
0.507060 0.507060 0.921671
0.704201 0.500272 0.919215
0.915084 0.490505 0.915084
0.999969 0.513244 0.823624
0.071681 0.675499 0.899906
0.110683 0.674080 0.910444
0.486586 0.695669 0.913181
0.734301 0.734301 0.909736
0.907089 0.730762 0.907089
0.999969 0.735660 0.858841
0.071645 0.899904 0.899904
0.100956 0.902265 0.902265
0.431236 0.905243 0.905243
0.722094 0.902023 0.902023
0.899903 0.899903 0.899903
0.999969 0.899903 0.899903
0.071619 0.999969 0.800451
0.191750 0.999969 0.799515
0.513236 0.999969 0.823623
0.735657 0.999969 0.858840
0.899902 0.999969 0.899902
0.999969 0.999969 0.899889
0.071715 0.071715 0.999969
0.206806 0.071715 0.999969
0.402401 0.071714 0.999969
0.601073 0.071707 0.999969
0.800452 0.071698 0.999969
0.999969 0.071685 0.999969
0.071713 0.206806 0.999969
0.191772 0.191772 0.999969
0.397250 0.191770 0.999969
0.598754 0.191767 0.999969
0.799517 0.191782 0.999969
0.999969 0.191776 0.999969
0.071707 0.402400 0.999969
0.191767 0.397248 0.999969
0.513247 0.513247 0.999969
0.657565 0.513246 0.999969
0.823625 0.513245 0.999969
0.999969 0.513243 0.999969
0.071686 0.601072 0.999969
0.191777 0.598755 0.999969
0.513244 0.657564 0.999969
0.735661 0.735661 0.999969
0.858841 0.735661 0.999969
0.999969 0.735660 0.999969
0.071659 0.800451 0.999969
0.191768 0.799516 0.999969
0.513241 0.823624 0.999969
0.735659 0.858841 0.999969
0.899903 0.899903 0.999969
0.999969 0.899903 0.999969
0.071614 0.999969 0.999969
0.191748 0.999969 0.999969
0.513235 0.999969 0.999969
0.735657 0.999969 0.999969
0.899902 0.999969 0.999969
0.999969 0.999969 0.999969
