android/app/src/main/res/raw/super8_daylight.cube
LUT_3D_SIZE 16
-0.076127 -0.076127 -0.076127
-0.044193 -0.076127 -0.076127
0.133877 -0.076128 -0.076128
0.225800 -0.076128 -0.076128
0.315539 -0.076129 -0.076129
0.408326 -0.076130 -0.076130
0.501747 -0.076132 -0.076132
0.590929 -0.076133 -0.076133
0.670123 -0.076136 -0.076136
0.737617 -0.076138 -0.076138
0.796719 -0.076141 -0.076141
0.850182 -0.076143 -0.076143
0.898977 -0.076146 -0.076146
0.942358 -0.076149 -0.076149
0.978646 -0.076152 -0.076152
0.999969 -0.076153 -0.076153
-0.076128 -0.044193 -0.076128
-0.044193 -0.044193 -0.076128
0.133877 0.015033 -0.076128
0.225800 0.029444 -0.076128
0.315539 0.030338 -0.076129
0.408326 0.028644 -0.076130
0.501746 0.025698 -0.076132
0.590929 0.021549 -0.076134
0.670123 0.014459 -0.076136
0.737617 -0.011664 -0.076138
0.796719 -0.019708 -0.076141
0.850182 -0.025093 -0.076143
0.898977 -0.029707 -0.076146
0.942358 -0.034118 -0.076149
0.978646 -0.038700 -0.076152
0.999969 -0.044255 -0.076154
-0.076128 0.133879 -0.076128
0.015028 0.133879 -0.076128
0.133879 0.133879 -0.076129
0.225799 0.143154 -0.076129
0.315539 0.147931 -0.076130
0.408326 0.152015 -0.076131
0.501746 0.154919 -0.076133
0.590929 0.155826 -0.076134
0.670123 0.154134 -0.076136
0.737617 0.150342 -0.076139
0.796719 0.145664 -0.076141
0.850182 0.140777 -0.076144
0.898977 0.135857 -0.076147
0.942358 0.130728 -0.076150
0.978646 0.125084 -0.076153
0.999969 0.117699 -0.076154
-0.076130 0.225799 -0.076130
0.029437 0.225799 -0.076130
0.143153 0.225799 -0.076131
0.225798 0.225798 -0.076131
0.315571 0.233366 -0.076132
0.408325 0.240073 -0.076133
0.501746 0.244992 -0.076134
0.590928 0.246753 -0.076136
0.670122 0.244430 -0.076138
0.737617 0.238821 -0.076140
0.796719 0.231832 -0.076143
0.850182 0.224582 -0.076146
0.898977 0.217326 -0.076148
0.942358 0.209908 -0.076151
0.978646 0.201884 -0.076154
0.999969 0.191738 -0.076155
-0.076133 0.315570 -0.076133
0.030328 0.315570 -0.076133
0.147943 0.315570 -0.076133
0.233365 0.315570 -0.076134
0.315570 0.315570 -0.076135
0.408324 0.324727 -0.076136
0.501745 0.331493 -0.076137
0.590928 0.333990 -0.076139
0.670122 0.330978 -0.076141
0.737617 0.323522 -0.076143
0.796718 0.314235 -0.076145
0.850182 0.304553 -0.076148
0.898977 0.294930 -0.076151
0.942358 0.285120 -0.076153
0.978646 0.274582 -0.076155
0.999969 0.261339 -0.076157
-0.076137 0.408324 -0.076137
0.028614 0.408324 -0.076137
0.152012 0.408324 -0.076137
0.240072 0.408324 -0.076138
0.324726 0.408323 -0.076139
0.408323 0.408323 -0.076140
0.501745 0.416882 -0.076141
0.590928 0.420083 -0.076142
0.670122 0.416361 -0.076144
0.737616 0.407020 -0.076146
0.796718 0.395394 -0.076149
0.850182 0.383329 -0.076151
0.898976 0.371325 -0.076154
0.942358 0.359091 -0.076156
0.978646 0.345993 -0.076158
0.999969 0.329597 -0.076163
-0.076141 0.501745 -0.076141
0.025640 0.501745 -0.076142
0.154914 0.501745 -0.076142
0.244992 0.501745 -0.076142
0.331492 0.501744 -0.076143
0.416881 0.501744 -0.076144
0.501744 0.501744 -0.076146
0.590927 0.505642 -0.076147
0.670122 0.501165 -0.076149
0.737616 0.489999 -0.076151
0.796718 0.476045 -0.076153
0.850182 0.461548 -0.076155
0.898976 0.447153 -0.076158
0.942357 0.432512 -0.076163
0.978646 0.416828 -0.076165
0.999969 0.397249 -0.076166
-0.076147 0.590927 -0.076147
0.021441 0.590927 -0.076147
0.155819 0.590927 -0.076148
0.246749 0.590927 -0.076148
0.333988 0.590927 -0.076149
0.420081 0.590927 -0.076150
0.505641 0.590927 -0.076152
0.590927 0.590927 -0.076153
0.670121 0.585745 -0.076155
0.737615 0.572719 -0.076157
0.796718 0.556428 -0.076159
0.850181 0.539522 -0.076164
0.898976 0.522749 -0.076166
0.942357 0.505663 -0.076169
0.978645 0.487396 -0.076170
0.999969 0.464590 -0.076170
-0.076154 0.670121 -0.076154
0.014199 0.670121 -0.076155
0.154124 0.670121 -0.076154
0.244425 0.670121 -0.076155
0.330975 0.670121 -0.076156
0.416359 0.670121 -0.076157
0.501163 0.670121 -0.076158
0.585745 0.670121 -0.076163
0.670121 0.670121 -0.076165
0.737615 0.655188 -0.076167
0.796717 0.636582 -0.076169
0.850202 0.617311 -0.076171
0.898976 0.598090 -0.076173
0.942357 0.578574 -0.076174
0.978645 0.557752 -0.076176
0.999969 0.531727 -0.076175
-0.076165 0.737615 -0.076165
-0.012019 0.737615 -0.076165
0.150329 0.737615 -0.076165
0.238815 0.737615 -0.076166
0.323519 0.737615 -0.076167
0.407017 0.737615 -0.076168
0.489997 0.737615 -0.076169
0.572721 0.737614 -0.076171
0.655188 0.737614 -0.076173
0.737614 0.737614 -0.076175
0.796716 0.716647 -0.076177
0.850201 0.694970 -0.076179
0.898975 0.673393 -0.076180
0.942356 0.651434 -0.076182
0.978645 0.628009 -0.076183
0.999969 0.598748 -0.076182
-0.076174 0.796716 -0.076174
-0.019924 0.796716 -0.076174
0.145648 0.796716 -0.076174
0.231821 0.796716 -0.076174
0.314244 0.796716 -0.076175
0.395389 0.796716 -0.076176
0.476043 0.796716 -0.076177
0.556426 0.796716 -0.076179
0.636581 0.796716 -0.076181
0.716646 0.796716 -0.076184
0.796715 0.796715 -0.076186
0.850201 0.772591 -0.076188
0.898975 0.748593 -0.076189
0.942356 0.724286 -0.076190
0.978644 0.698216 -0.076191
0.999969 0.665760 -0.076189
-0.076183 0.850201 -0.076183
-0.025281 0.850201 -0.076183
0.140763 0.850201 -0.076183
0.224574 0.850201 -0.076184
0.304553 0.850201 -0.076184
0.383316 0.850201 -0.076185
0.461555 0.850201 -0.076186
0.539533 0.850201 -0.076188
0.617309 0.850201 -0.076190
0.694969 0.850200 -0.076193
0.772590 0.850200 -0.076195
0.850200 0.850200 -0.076201
0.898974 0.823825 -0.076202
0.942356 0.797003 -0.076203
0.978644 0.768365 -0.076203
0.999969 0.732680 -0.076201
-0.076193 0.898975 -0.076193
-0.029883 0.898975 -0.076193
0.135833 0.898975 -0.076193
0.217318 0.898975 -0.076193
0.294932 0.898975 -0.076194
0.371318 0.898975 -0.076195
0.447149 0.898974 -0.076196
0.522743 0.898974 -0.076201
0.598088 0.898974 -0.076203
0.673392 0.898974 -0.076205
0.748592 0.898974 -0.076208
0.823825 0.898974 -0.076211
0.898974 0.898974 -0.076214
0.942355 0.869693 -0.076214
0.978643 0.838471 -0.076213
0.999969 0.799513 -0.076210
-0.076205 0.942355 -0.076205
-0.034286 0.942355 -0.076205
0.130703 0.942355 -0.076206
0.209901 0.942355 -0.076206
0.285126 0.942355 -0.076207
0.359083 0.942355 -0.076208
0.432507 0.942355 -0.076209
0.505659 0.942355 -0.076210
0.578572 0.942355 -0.076212
0.651432 0.942355 -0.076214
0.724284 0.942355 -0.076217
0.797002 0.942355 -0.076220
0.869692 0.942354 -0.076223
0.942354 0.942354 -0.076227
0.978643 0.908509 -0.076225
0.999969 0.866344 -0.076220
-0.076214 0.978643 -0.076214
-0.038859 0.978643 -0.076214
0.125057 0.978643 -0.076214
0.201870 0.978643 -0.076215
0.274571 0.978643 -0.076215
0.345987 0.978643 -0.076216
0.416820 0.978643 -0.076217
0.487391 0.978643 -0.076219
0.557748 0.978643 -0.076220
0.628007 0.978643 -0.076223
0.698214 0.978643 -0.076225
0.768363 0.978642 -0.076227
0.838470 0.978642 -0.076231
0.908509 0.978642 -0.076234
0.978642 0.978642 -0.076241
0.999969 0.933235 -0.076232
-0.076220 0.999969 -0.076220
-0.044396 0.999969 -0.076220
0.117664 0.999969 -0.076220
0.191716 0.999969 -0.076220
0.261327 0.999969 -0.076221
0.329590 0.999969 -0.076222
0.397241 0.999969 -0.076223
0.464586 0.999969 -0.076224
0.531723 0.999969 -0.076226
0.598746 0.999969 -0.076227
0.665758 0.999969 -0.076229
0.732679 0.999969 -0.076232
0.799512 0.999969 -0.076235
0.866343 0.999969 -0.076241
0.933235 0.999969 -0.076244
0.999969 0.999969 -0.076248
-0.076127 -0.076127 -0.044193
-0.044193 -0.076127 -0.044193
0.133877 -0.076128 0.015035
0.225800 -0.076128 0.029444
0.315539 -0.076129 0.030340
0.408326 -0.076130 0.028645
0.501747 -0.076132 0.025699
0.590929 -0.076133 0.021550
0.670123 -0.076136 0.014462
0.737617 -0.076138 -0.011662
0.796719 -0.076141 -0.019707
0.850182 -0.076143 -0.025092
0.898977 -0.076146 -0.029707
0.942358 -0.076149 -0.034117
0.978646 -0.076152 -0.038700
0.999969 -0.076153 -0.044255
-0.076128 -0.044193 -0.044193
-0.044193 -0.044193 -0.044193
0.133877 -0.044194 -0.044194
0.225800 -0.044196 -0.044196
0.315539 -0.044198 -0.044198
0.408326 -0.044201 -0.044201
0.501747 -0.044205 -0.044205
0.590929 -0.044210 -0.044210
0.670123 -0.044212 -0.044212
0.737617 -0.044219 -0.044219
0.796719 -0.044227 -0.044227
0.850182 -0.044228 -0.044228
0.898977 -0.044236 -0.044236
0.942358 -0.044245 -0.044245
0.978646 -0.044250 -0.044250
0.999969 -0.044254 -0.044254
-0.076128 0.133879 0.015029
-0.044196 0.133879 -0.044196
0.133879 0.133879 -0.044196
0.225799 0.139969 -0.044198
0.315539 0.143789 -0.044200
0.408326 0.147583 -0.044204
0.501746 0.150435 -0.044207
0.590929 0.151422 -0.044212
0.670122 0.149959 -0.044215
0.737617 0.146493 -0.044221
0.796719 0.142196 -0.044229
0.850182 0.137746 -0.044231
0.898977 0.133311 -0.044238
0.942358 0.128775 -0.044244
0.978646 0.123886 -0.044251
0.999969 0.117699 -0.044256
-0.076130 0.225799 0.029437
-0.044201 0.225799 -0.044201
0.139968 0.225799 -0.044202
0.225798 0.225798 -0.044203
0.315571 0.232053 -0.044206
0.408325 0.238242 -0.044208
0.501746 0.242961 -0.044212
0.590928 0.244669 -0.044213
0.670122 0.242401 -0.044219
0.737617 0.236922 -0.044226
0.796719 0.230108 -0.044227
0.850182 0.223060 -0.044235
0.898977 0.216065 -0.044243
0.942358 0.208926 -0.044248
0.978646 0.201293 -0.044255
0.999969 0.191738 -0.044259
-0.076133 0.315570 0.030328
-0.044208 0.315570 -0.044208
0.143809 0.315570 -0.044209
0.232052 0.315570 -0.044211
0.315570 0.315570 -0.044210
0.408324 0.324038 -0.044212
0.501745 0.330492 -0.044216
0.590928 0.332851 -0.044221
0.670122 0.329796 -0.044226
0.737617 0.322377 -0.044227
0.796718 0.313176 -0.044234
0.850182 0.303609 -0.044241
0.898977 0.294139 -0.044246
0.942358 0.284501 -0.044253
0.978646 0.274201 -0.044261
0.999969 0.261340 -0.044264
-0.076137 0.408324 0.028614
-0.044216 0.408324 -0.044216
0.147579 0.408324 -0.044217
0.238240 0.408324 -0.044218
0.324037 0.408323 -0.044221
0.408323 0.408323 -0.044224
0.501745 0.416484 -0.044227
0.590928 0.419489 -0.044225
0.670122 0.415605 -0.044231
0.737616 0.406287 -0.044236
0.796718 0.394712 -0.044243
0.850182 0.382710 -0.044248
0.898977 0.370782 -0.044255
0.942358 0.358641 -0.044262
0.978646 0.345721 -0.044263
0.999969 0.329597 -0.044266
-0.076142 0.501745 0.025640
-0.044230 0.501745 -0.044230
0.150430 0.501745 -0.044225
0.242959 0.501745 -0.044226
0.330491 0.501744 -0.044228
0.416483 0.501744 -0.044231
0.501744 0.501744 -0.044235
0.590927 0.505356 -0.044239
0.670122 0.500763 -0.044244
0.737616 0.489535 -0.044247
0.796718 0.475562 -0.044253
0.850182 0.461108 -0.044260
0.898976 0.446764 -0.044261
0.942357 0.432185 -0.044268
0.978646 0.416647 -0.044273
0.999969 0.397249 -0.044276
-0.076147 0.590927 0.021441
-0.044240 0.590927 -0.044240
0.151420 0.590927 -0.044241
0.244665 0.590927 -0.044242
0.332849 0.590927 -0.044245
0.419487 0.590927 -0.044245
0.505356 0.590927 -0.044249
0.590927 0.590927 -0.044254
0.670121 0.585561 -0.044258
0.737615 0.572450 -0.044263
0.796718 0.556157 -0.044264
0.850181 0.539237 -0.044270
0.898976 0.522467 -0.044276
0.942357 0.505446 -0.044280
0.978645 0.487250 -0.044284
0.999969 0.464590 -0.044285
-0.076154 0.670121 0.014199
-0.044257 0.670121 -0.044257
0.149948 0.670121 -0.044257
0.242396 0.670121 -0.044259
0.329793 0.670121 -0.044260
0.415603 0.670121 -0.044263
0.500762 0.670121 -0.044263
0.585561 0.670121 -0.044268
0.670121 0.670121 -0.044273
0.737615 0.655084 -0.044278
0.796717 0.636380 -0.044280
0.850202 0.617096 -0.044286
0.898976 0.597906 -0.044292
0.942357 0.578418 -0.044297
0.978645 0.557626 -0.044297
0.999969 0.531727 -0.044297
-0.076165 0.737615 -0.012018
-0.044274 0.737615 -0.044274
0.146482 0.737615 -0.044274
0.236918 0.737615 -0.044275
0.322374 0.737615 -0.044277
0.406284 0.737615 -0.044278
0.489534 0.737615 -0.044281
0.572449 0.737614 -0.044286
0.655084 0.737614 -0.044292
0.737614 0.737614 -0.044296
0.796716 0.716632 -0.044301
0.850201 0.694871 -0.044305
0.898975 0.673239 -0.044310
0.942356 0.651295 -0.044315
0.978645 0.627933 -0.044313
0.999969 0.598748 -0.044315
-0.076174 0.796716 -0.019923
-0.044295 0.796717 -0.044295
0.142181 0.796716 -0.044296
0.230108 0.796716 -0.044297
0.313169 0.796716 -0.044296
0.394707 0.796716 -0.044299
0.475559 0.796716 -0.044303
0.556154 0.796716 -0.044307
0.636379 0.796716 -0.044313
0.716632 0.796716 -0.044316
0.796715 0.796715 -0.044325
0.850201 0.772563 -0.044329
0.898975 0.748499 -0.044332
0.942356 0.724186 -0.044332
0.978644 0.698192 -0.044333
0.999969 0.665760 -0.044331
-0.076183 0.850201 -0.025281
-0.044315 0.850201 -0.044315
0.137730 0.850201 -0.044315
0.223052 0.850201 -0.044317
0.303608 0.850201 -0.044319
0.382715 0.850201 -0.044321
0.461115 0.850201 -0.044325
0.539215 0.850201 -0.044330
0.617095 0.850201 -0.044332
0.694870 0.850201 -0.044339
0.772563 0.850200 -0.044347
0.850200 0.850200 -0.044350
0.898974 0.823777 -0.044353
0.942356 0.796955 -0.044354
0.978644 0.768315 -0.044354
0.999969 0.732680 -0.044347
-0.076193 0.898975 -0.029883
-0.044339 0.898975 -0.044339
0.133289 0.898975 -0.044340
0.216049 0.898975 -0.044341
0.294130 0.898975 -0.044343
0.370775 0.898975 -0.044346
0.446760 0.898974 -0.044349
0.522464 0.898974 -0.044348
0.597904 0.898974 -0.044353
0.673237 0.898974 -0.044359
0.748497 0.898974 -0.044365
0.823777 0.898974 -0.044373
0.898974 0.898974 -0.044383
0.942355 0.869661 -0.044383
0.978643 0.838438 -0.044380
0.999969 0.799513 -0.044371
-0.076205 0.942355 -0.034286
-0.044361 0.942355 -0.044361
0.128748 0.942355 -0.044361
0.208913 0.942355 -0.044363
0.284490 0.942355 -0.044364
0.358632 0.942355 -0.044367
0.432184 0.942355 -0.044367
0.505442 0.942355 -0.044372
0.578415 0.942355 -0.044377
0.651293 0.942355 -0.044383
0.724225 0.942355 -0.044387
0.796954 0.942355 -0.044396
0.869661 0.942355 -0.044402
0.942354 0.942354 -0.044412
0.978643 0.908493 -0.044407
0.999969 0.866344 -0.044398
-0.076214 0.978643 -0.038859
-0.044383 0.978643 -0.044383
0.123853 0.978643 -0.044384
0.201279 0.978643 -0.044385
0.274190 0.978643 -0.044383
0.345714 0.978643 -0.044386
0.416639 0.978643 -0.044389
0.487246 0.978643 -0.044393
0.557652 0.978643 -0.044398
0.627931 0.978643 -0.044403
0.698190 0.978643 -0.044407
0.768314 0.978642 -0.044415
0.838437 0.978642 -0.044418
0.908492 0.978642 -0.044428
0.978642 0.978642 -0.044436
0.999969 0.933235 -0.044422
-0.076220 0.999969 -0.044396
-0.044396 0.999969 -0.044396
0.117665 0.999969 -0.044397
0.191716 0.999969 -0.044398
0.261327 0.999969 -0.044399
0.329590 0.999969 -0.044401
0.397241 0.999969 -0.044401
0.464586 0.999969 -0.044405
0.531724 0.999969 -0.044409
0.598746 0.999969 -0.044414
0.665758 0.999969 -0.044420
0.732679 0.999969 -0.044421
0.799512 0.999969 -0.044430
0.866343 0.999969 -0.044436
0.933235 0.999969 -0.044445
0.999969 0.999969 -0.044453
-0.076128 -0.076128 0.133877
0.015036 -0.076128 0.133877
0.133877 -0.076128 0.133877
0.225800 -0.076128 0.143154
0.315539 -0.076129 0.147932
0.408326 -0.076130 0.152015
0.501747 -0.076132 0.154916
0.590929 -0.076134 0.155827
0.670123 -0.076136 0.154135
0.737617 -0.076138 0.150343
0.796719 -0.076141 0.145665
0.850182 -0.076143 0.140777
0.898977 -0.076146 0.135857
0.942358 -0.076149 0.130729
0.978646 -0.076152 0.125085
0.999969 -0.076154 0.117699
-0.076128 0.015035 0.133877
-0.044194 -0.044194 0.133877
0.133877 -0.044194 0.133877
0.225800 -0.044196 0.139969
0.315539 -0.044198 0.143789
0.408326 -0.044201 0.147583
0.501746 -0.044206 0.150436
0.590929 -0.044210 0.151423
0.670123 -0.044212 0.149959
0.737617 -0.044219 0.146493
0.796719 -0.044227 0.142196
0.850182 -0.044229 0.137747
0.898977 -0.044237 0.133312
0.942358 -0.044245 0.128775
0.978646 -0.044250 0.123886
0.999969 -0.044254 0.117699
-0.076129 0.133879 0.133879
-0.044196 0.133879 0.133879
0.133879 0.133879 0.133879
0.230121 0.131672 0.131672
0.324425 0.127378 0.127378
0.424099 0.118456 0.118456
0.520640 0.109028 0.109028
0.609313 0.100727 0.100727
0.685940 0.093898 0.093898
0.751052 0.088451 0.088451
0.808405 0.084127 0.084127
0.860784 0.080719 0.080719
0.908645 0.078081 0.078081
0.951367 0.076080 0.076080
0.987199 0.074640 0.074640
0.999969 0.133868 0.133868
-0.076130 0.225799 0.143153
-0.044201 0.225799 0.139968
0.123743 0.227865 0.123743
0.226360 0.226360 0.119393
0.322833 0.228264 0.113796
0.420643 0.230224 0.107430
0.516647 0.230644 0.101037
0.605942 0.228638 0.095129
0.683476 0.223703 0.089992
0.749295 0.216907 0.085708
0.807144 0.209644 0.082179
0.859818 0.202694 0.079320
0.907861 0.196075 0.077059
0.950781 0.189634 0.075317
0.986715 0.183040 0.074062
0.999969 0.200304 0.133867
-0.076133 0.315570 0.147943
-0.044209 0.315570 0.143809
0.105404 0.319302 0.105404
0.222927 0.318140 0.102959
0.316429 0.316429 0.099547
0.414712 0.322667 0.096188
0.511408 0.326630 0.092489
0.601731 0.326434 0.088772
0.680384 0.321196 0.085323
0.747005 0.312405 0.082278
0.805468 0.302527 0.079646
0.858483 0.292747 0.077446
0.906852 0.283267 0.075657
0.949918 0.273850 0.074259
0.986058 0.264038 0.073242
0.999969 0.266867 0.133866
-0.076137 0.408324 0.152012
-0.044216 0.408324 0.147580
0.092222 0.412377 0.092222
0.221739 0.411599 0.090995
0.318938 0.410556 0.089216
0.409187 0.409187 0.087004
0.506463 0.415997 0.085036
0.597662 0.417263 0.082868
0.677301 0.411717 0.080731
0.744716 0.401118 0.078740
0.803637 0.388770 0.076937
0.857001 0.376415 0.075370
0.905667 0.364320 0.074063
0.948946 0.352256 0.073025
0.985187 0.339552 0.072267
0.999969 0.333486 0.133865
-0.076142 0.501745 0.154914
-0.044230 0.501745 0.150430
0.083450 0.505395 0.083450
0.221476 0.504956 0.082806
0.321113 0.504301 0.081857
0.413387 0.503484 0.080630
0.502508 0.502508 0.079205
0.594235 0.505124 0.078012
0.674549 0.499244 0.076766
0.742542 0.486947 0.075540
0.801839 0.472271 0.074390
0.855492 0.457439 0.073355
0.904362 0.442880 0.072473
0.947810 0.428228 0.071763
0.984316 0.412787 0.071249
0.999969 0.400104 0.133864
-0.076148 0.590927 0.155819
-0.044240 0.590927 0.151420
0.077612 0.593939 0.077612
0.220177 0.593684 0.077261
0.320615 0.593314 0.076738
0.413512 0.592816 0.076042
0.503347 0.592231 0.075217
0.591545 0.591545 0.074303
0.672357 0.585341 0.073617
0.740649 0.571353 0.072922
0.800280 0.554403 0.072231
0.854160 0.537180 0.071596
0.903205 0.520168 0.071044
0.946803 0.503036 0.070599
0.983311 0.484859 0.070290
0.999969 0.466781 0.133862
-0.076155 0.670121 0.154124
-0.044257 0.670121 0.149948
0.073759 0.672439 0.073759
0.216537 0.672290 0.073564
0.315941 0.672090 0.073266
0.407863 0.671800 0.072877
0.496774 0.671471 0.072402
0.584156 0.671004 0.071870
0.670604 0.670604 0.071302
0.739165 0.654916 0.070929
0.798963 0.635652 0.070548
0.852955 0.615996 0.070201
0.902152 0.596596 0.069880
0.945797 0.576996 0.069629
0.982402 0.556197 0.069481
0.999969 0.533406 0.133859
-0.076165 0.737615 0.150329
-0.044273 0.737615 0.146482
0.071258 0.739447 0.071258
0.210894 0.739360 0.071156
0.307838 0.739205 0.070989
0.397498 0.739009 0.070770
0.484333 0.738843 0.070498
0.569661 0.738557 0.070200
0.654092 0.738233 0.069873
0.737953 0.737953 0.069548
0.797823 0.716441 0.069362
0.851960 0.694419 0.069187
0.901183 0.672582 0.069035
0.944976 0.650548 0.068921
0.981650 0.627151 0.068859
0.999969 0.600057 0.133856
-0.076174 0.796716 0.145648
-0.044295 0.796717 0.142181
0.069701 0.798192 0.069701
0.204561 0.798115 0.069649
0.298509 0.798069 0.069564
0.385454 0.797896 0.069443
0.469632 0.797785 0.069306
0.552456 0.797564 0.069137
0.634419 0.797422 0.068972
0.715849 0.797182 0.068798
0.796941 0.796941 0.068641
0.851131 0.772527 0.068571
0.900361 0.748286 0.068518
0.944211 0.723812 0.068478
0.980920 0.697809 0.068466
0.999969 0.666767 0.133852
-0.076183 0.850201 0.140763
-0.044315 0.850201 0.137730
0.068815 0.851534 0.068815
0.198374 0.851474 0.068790
0.289238 0.851391 0.068749
0.373362 0.851280 0.068693
0.454897 0.851200 0.068631
0.535095 0.851084 0.068554
0.614535 0.850982 0.068481
0.693466 0.850791 0.068422
0.772086 0.850616 0.068354
0.850448 0.850448 0.068322
0.899711 0.823824 0.068317
0.943551 0.796839 0.068314
0.980244 0.768186 0.068315
0.999969 0.733402 0.133849
-0.076193 0.898975 0.135833
-0.044339 0.898975 0.133289
0.068405 0.900136 0.068405
0.192409 0.900088 0.068399
0.280190 0.900036 0.068386
0.361603 0.899997 0.068365
0.440468 0.899910 0.068345
0.518110 0.899827 0.068329
0.594971 0.899690 0.068317
0.671454 0.899573 0.068310
0.747564 0.899460 0.068322
0.823475 0.899308 0.068350
0.899132 0.899132 0.068410
0.943006 0.869744 0.068414
0.979699 0.838494 0.068399
0.999969 0.800063 0.133844
-0.076206 0.942355 0.130704
-0.044361 0.942355 0.128748
0.068313 0.943438 0.068313
0.186524 0.943398 0.068313
0.271170 0.943375 0.068320
0.349787 0.943325 0.068323
0.425936 0.943252 0.068330
0.501003 0.943174 0.068345
0.575296 0.943092 0.068377
0.649212 0.943003 0.068415
0.722842 0.942903 0.068460
0.796200 0.942805 0.068536
0.869458 0.942734 0.068625
0.942602 0.942602 0.068746
0.979265 0.908638 0.068692
0.999969 0.866657 0.133840
-0.076214 0.978643 0.125057
-0.044383 0.978643 0.123853
0.068417 0.979636 0.068417
0.180362 0.979603 0.068422
0.261656 0.979605 0.068434
0.337254 0.979581 0.068452
0.410616 0.979538 0.068473
0.482881 0.979478 0.068514
0.554458 0.979394 0.068554
0.625670 0.979347 0.068611
0.696649 0.979274 0.068686
0.767336 0.979137 0.068777
0.837901 0.978992 0.068887
0.908360 0.978934 0.069031
0.978827 0.978827 0.069187
0.999969 0.933408 0.133834
-0.076220 0.999969 0.117664
-0.044396 0.999969 0.117665
0.133840 0.999969 0.133840
0.200289 0.999969 0.133840
0.266856 0.999969 0.133839
0.333480 0.999969 0.133839
0.400097 0.999969 0.133838
0.466777 0.999969 0.133838
0.533395 0.999969 0.133837
0.600056 0.999969 0.133836
0.666765 0.999969 0.133835
0.733401 0.999969 0.133834
0.800063 0.999969 0.133833
0.866657 0.999969 0.133832
0.933408 0.999969 0.133832
0.999969 0.999969 0.133830
-0.076128 -0.076128 0.225800
0.029447 -0.076128 0.225800
0.143154 -0.076128 0.225800
0.225800 -0.076129 0.225800
0.315539 -0.076129 0.233345
0.408326 -0.076131 0.240074
0.501746 -0.076132 0.244993
0.590929 -0.076134 0.246753
0.670123 -0.076136 0.244430
0.737617 -0.076138 0.238822
0.796719 -0.076141 0.231833
0.850182 -0.076143 0.224583
0.898977 -0.076146 0.217327
0.942358 -0.076149 0.209908
0.978646 -0.076152 0.201885
0.999969 -0.076154 0.191739
-0.076128 0.029446 0.225800
-0.044194 -0.044194 0.225800
0.139969 -0.044195 0.225800
0.225800 -0.044196 0.225800
0.315539 -0.044199 0.232026
0.408326 -0.044202 0.238242
0.501746 -0.044205 0.242962
0.590929 -0.044211 0.244669
0.670123 -0.044213 0.242402
0.737617 -0.044220 0.236923
0.796719 -0.044227 0.230108
0.850182 -0.044229 0.223060
0.898977 -0.044237 0.216066
0.942358 -0.044245 0.208926
0.978646 -0.044250 0.201294
0.999969 -0.044255 0.191739
-0.076129 0.143154 0.225800
-0.044196 0.139969 0.225800
0.133126 0.133126 0.230874
0.229719 0.130894 0.229719
0.324672 0.125987 0.232411
0.423917 0.117159 0.234574
0.520216 0.108088 0.234061
0.608900 0.100075 0.230964
0.685663 0.093465 0.225286
0.750835 0.088139 0.217952
0.808290 0.083912 0.210366
0.860678 0.080578 0.203196
0.908581 0.077971 0.196439
0.951326 0.076003 0.189909
0.987141 0.074578 0.183254
0.999969 0.133867 0.200304
-0.076131 0.225799 0.225799
-0.044202 0.225799 0.225799
0.122242 0.227398 0.227398
0.225798 0.225798 0.225798
0.320287 0.223998 0.223998
0.417057 0.221528 0.221528
0.513674 0.218277 0.218277
0.607520 0.211769 0.211769
0.689560 0.202868 0.202868
0.758067 0.193539 0.193539
0.817527 0.184632 0.184632
0.871192 0.176613 0.176613
0.919860 0.169662 0.169662
0.962956 0.163871 0.163871
0.993133 0.181558 0.181558
0.999969 0.225804 0.225804
-0.076133 0.315570 0.233365
-0.044209 0.315570 0.232052
0.104541 0.318896 0.223735
0.219671 0.317281 0.219671
0.315988 0.315988 0.217592
0.414703 0.318979 0.213763
0.513990 0.319682 0.207919
0.607521 0.316638 0.200690
0.688393 0.309356 0.192874
0.756338 0.299433 0.185095
0.815626 0.288931 0.177715
0.869322 0.278863 0.171023
0.918131 0.269382 0.165138
0.961430 0.260401 0.160194
0.993057 0.261487 0.176242
0.999969 0.284278 0.225803
-0.076137 0.408324 0.240072
-0.044217 0.408324 0.238240
0.091795 0.412087 0.222155
0.205625 0.412637 0.205625
0.313260 0.411415 0.202186
0.409444 0.409444 0.197520
0.510104 0.413733 0.192696
0.603999 0.412631 0.187076
0.685082 0.405116 0.181162
0.753358 0.393382 0.175272
0.812894 0.380486 0.169572
0.866911 0.367891 0.164327
0.915841 0.355778 0.159619
